; generated by Slic3r 0.9.10b on 2013-11-15 at 16:56:25

; layer_height = 0.1
; perimeters = 1
; top_solid_layers = 0
; bottom_solid_layers = 0
; fill_density = 0
; perimeter_speed = 30
; infill_speed = 60
; travel_speed = 130
; nozzle_diameter = 0.5
; filament_diameter = 3
; extrusion_multiplier = 1
; perimeters extrusion width = 0.85mm
; infill extrusion width = 1.98mm
; solid infill extrusion width = 0.85mm
; top infill extrusion width = 0.85mm
; first layer extrusion width = 1.00mm

G21 ; set units to millimeters
M107
M190 S5 ; wait for bed temperature to be reached
M104 S205 ; set temperature
G28 ; home all axes
G1 Z5 F5000 ; lift nozzle
M109 S205 ; wait for temperature to be reached
G90 ; use absolute coordinates
G92 E0
M82 ; use absolute distances for extrusion
G1 F1800.000 E-1.00000
G92 E0
G1 Z0.500 F7800.000
G1 X88.180 Y87.917
G1 F1800.000 E1.00000
G1 X88.690 Y87.417 F600.000 E1.04510
G1 X89.240 Y86.967 E1.08997
G1 X90.930 Y85.737 E1.22196
G1 X91.540 Y85.337 E1.26802
G1 X92.190 Y85.007 E1.31405
G1 X94.100 Y84.157 E1.44607
G1 X94.780 Y83.897 E1.49204
G1 X95.490 Y83.707 E1.53845
G1 X97.540 Y83.277 E1.67071
G1 X98.240 Y83.167 E1.71546
G1 X98.950 Y83.137 E1.76033
G1 X101.040 Y83.137 E1.89230
G1 X101.750 Y83.167 E1.93718
G1 X102.450 Y83.277 E1.98192
G1 X104.500 Y83.707 E2.11419
G1 X105.220 Y83.897 E2.16121
G1 X105.900 Y84.167 E2.20741
G1 X107.800 Y85.017 E2.33884
G1 X108.440 Y85.347 E2.38431
G1 X109.050 Y85.737 E2.43003
G1 X110.740 Y86.967 E2.56202
G1 X111.280 Y87.407 E2.60600
G1 X111.780 Y87.897 E2.65021
G1 X113.190 Y89.447 E2.78252
G1 X113.660 Y90.027 E2.82966
G1 X114.070 Y90.657 E2.87713
G1 X115.110 Y92.467 E3.00894
G1 X115.430 Y93.097 E3.05356
G1 X115.680 Y93.757 E3.09813
G1 X116.330 Y95.747 E3.23032
G1 X116.520 Y96.447 E3.27612
G1 X116.630 Y97.167 E3.32212
G1 X116.850 Y99.247 E3.45419
G1 X116.890 Y99.967 E3.49973
G1 X116.890 Y109.967 E4.13118
G1 X116.760 Y111.307 E4.21619
G1 X116.370 Y112.607 E4.30190
G1 X115.730 Y113.797 E4.38722
G1 X114.870 Y114.837 E4.47244
G1 X113.830 Y115.697 E4.55765
G1 X112.640 Y116.337 E4.64297
G1 X111.340 Y116.727 E4.72868
G1 X110.000 Y116.857 E4.81369
G1 X100.000 Y116.857 E5.44514
G1 X98.620 Y116.797 E5.53237
G1 X97.500 Y116.657 E5.60364
G1 X95.450 Y116.217 E5.73604
G1 X94.760 Y116.027 E5.78123
G1 X94.100 Y115.777 E5.82580
G1 X92.190 Y114.927 E5.95781
G1 X91.540 Y114.597 E6.00384
G1 X90.930 Y114.197 E6.04990
G1 X89.240 Y112.967 E6.18189
G1 X88.690 Y112.517 E6.22676
G1 X88.180 Y112.017 E6.27186
G1 X86.780 Y110.467 E6.40375
G1 X86.320 Y109.897 E6.45000
G1 X85.920 Y109.277 E6.49659
G1 X84.880 Y107.467 E6.62841
G1 X84.560 Y106.837 E6.67303
G1 X84.310 Y106.177 E6.71759
G1 X83.660 Y104.187 E6.84979
G1 X83.470 Y103.467 E6.89681
G1 X83.350 Y102.737 E6.94352
G1 X83.140 Y100.657 E7.07553
G1 X83.110 Y99.967 E7.11915
G1 X83.140 Y99.277 E7.16276
G1 X83.350 Y97.197 E7.29477
G1 X83.470 Y96.467 E7.34148
G1 X83.660 Y95.747 E7.38850
G1 X84.310 Y93.757 E7.52070
G1 X84.560 Y93.097 E7.56526
G1 X84.880 Y92.467 E7.60988
G1 X85.920 Y90.657 E7.74170
G1 X86.320 Y90.037 E7.78829
G1 X86.780 Y89.467 E7.83454
G1 X88.090 Y88.017 E7.95798
G1 F1800.000 E6.95798
G92 E0
G1 X93.609 Y92.875 F7800.000
G1 F1800.000 E1.00000
G1 X95.224 Y91.701 F600.000 E1.12609
G1 X97.049 Y90.889 E1.25217
G1 X99.002 Y90.474 E1.37826
G1 X100.998 Y90.474 E1.50434
G1 X102.951 Y90.889 E1.63043
G1 X104.776 Y91.701 E1.75651
G1 X106.391 Y92.875 E1.88260
G1 X107.727 Y94.359 E2.00868
G1 X108.725 Y96.088 E2.13477
G1 X109.342 Y97.987 E2.26085
G1 X109.554 Y99.996 E2.38843
G1 X109.554 Y109.526 E2.99022
G1 X100.446 Y109.526 E3.56530
G1 X100.446 Y109.471 E3.56876
G1 X99.002 Y109.471 E3.65999
G1 X97.049 Y109.056 E3.78608
G1 X95.224 Y108.244 E3.91216
G1 X93.609 Y107.071 E4.03825
G1 X92.273 Y105.587 E4.16433
G1 X91.275 Y103.857 E4.29042
G1 X90.658 Y101.958 E4.41650
G1 X90.449 Y99.973 E4.54259
G1 X90.658 Y97.987 E4.66867
G1 X91.275 Y96.088 E4.79476
G1 X92.273 Y94.359 E4.92084
G1 X93.519 Y92.974 E5.03847
M106 S255
M104 S200 ; set temperature
G1 F1800.000 E4.03847
G92 E0
G1 Z0.600 F7800.000
G1 X93.587 Y92.851
G1 F1800.000 E1.00000
G1 X95.208 Y91.673 F600.000 E1.02348
G1 X97.039 Y90.858 E1.04697
G1 X98.998 Y90.442 E1.07045
G1 X101.002 Y90.442 E1.09394
G1 X102.961 Y90.858 E1.11742
G1 X104.792 Y91.673 E1.14090
G1 X106.413 Y92.851 E1.16439
G1 X107.753 Y94.340 E1.18787
G1 X108.755 Y96.075 E1.21135
G1 X109.374 Y97.980 E1.23484
G1 X109.586 Y99.994 E1.25858
G1 X109.586 Y109.558 E1.37068
G1 X100.414 Y109.558 E1.47818
G1 X100.414 Y109.504 E1.47883
G1 X98.998 Y109.504 E1.49542
G1 X97.039 Y109.087 E1.51891
G1 X95.208 Y108.272 E1.54239
G1 X93.587 Y107.094 E1.56588
G1 X92.247 Y105.606 E1.58936
G1 X91.245 Y103.871 E1.61284
G1 X90.626 Y101.965 E1.63633
G1 X90.417 Y99.973 E1.65981
G1 X90.626 Y97.980 E1.68329
G1 X91.245 Y96.075 E1.70678
G1 X92.247 Y94.340 E1.73026
G1 X93.504 Y92.943 E1.75229
G1 F1800.000 E0.75229
G92 E0
G1 Z0.700 F7800.000
G1 X93.587 Y92.851
G1 F1800.000 E1.00000
G1 X95.208 Y91.673 F600.000 E1.02348
G1 X97.039 Y90.858 E1.04697
G1 X98.998 Y90.442 E1.07045
G1 X101.002 Y90.442 E1.09394
G1 X102.961 Y90.858 E1.11742
G1 X104.792 Y91.673 E1.14090
G1 X106.413 Y92.851 E1.16439
G1 X107.753 Y94.340 E1.18787
G1 X108.755 Y96.075 E1.21135
G1 X109.374 Y97.980 E1.23484
G1 X109.586 Y99.994 E1.25858
G1 X109.586 Y109.558 E1.37068
G1 X100.414 Y109.558 E1.47818
G1 X100.414 Y109.504 E1.47883
G1 X98.998 Y109.504 E1.49542
G1 X97.039 Y109.087 E1.51891
G1 X95.208 Y108.272 E1.54239
G1 X93.587 Y107.094 E1.56588
G1 X92.247 Y105.606 E1.58936
G1 X91.245 Y103.871 E1.61284
G1 X90.626 Y101.965 E1.63633
G1 X90.417 Y99.973 E1.65981
G1 X90.626 Y97.980 E1.68329
G1 X91.245 Y96.075 E1.70678
G1 X92.247 Y94.340 E1.73026
G1 X93.504 Y92.943 E1.75229
G1 F1800.000 E0.75229
G92 E0
G1 Z0.800 F7800.000
G1 X93.587 Y92.851
G1 F1800.000 E1.00000
G1 X95.208 Y91.673 F600.000 E1.02348
G1 X97.039 Y90.858 E1.04697
G1 X98.998 Y90.442 E1.07045
G1 X101.002 Y90.442 E1.09394
G1 X102.961 Y90.858 E1.11742
G1 X104.792 Y91.673 E1.14090
G1 X106.413 Y92.851 E1.16439
G1 X107.753 Y94.340 E1.18787
G1 X108.755 Y96.075 E1.21135
G1 X109.374 Y97.980 E1.23484
G1 X109.586 Y99.994 E1.25858
G1 X109.586 Y109.558 E1.37068
G1 X100.414 Y109.558 E1.47818
G1 X100.414 Y109.504 E1.47883
G1 X98.998 Y109.504 E1.49542
G1 X97.039 Y109.087 E1.51891
G1 X95.208 Y108.272 E1.54239
G1 X93.587 Y107.095 E1.56587
G1 X92.247 Y105.606 E1.58936
G1 X91.245 Y103.871 E1.61284
G1 X90.626 Y101.965 E1.63633
G1 X90.417 Y99.973 E1.65981
G1 X90.626 Y97.980 E1.68329
G1 X91.245 Y96.075 E1.70678
G1 X92.247 Y94.340 E1.73026
G1 X93.504 Y92.943 E1.75229
G1 F1800.000 E0.75229
G92 E0
G1 Z0.900 F7800.000
G1 X93.587 Y92.851
G1 F1800.000 E1.00000
G1 X95.208 Y91.673 F600.000 E1.02348
G1 X97.039 Y90.858 E1.04697
G1 X98.998 Y90.442 E1.07045
G1 X101.002 Y90.442 E1.09394
G1 X102.961 Y90.858 E1.11742
G1 X104.792 Y91.673 E1.14090
G1 X106.413 Y92.851 E1.16439
G1 X107.753 Y94.340 E1.18787
G1 X108.755 Y96.075 E1.21135
G1 X109.374 Y97.980 E1.23484
G1 X109.586 Y99.994 E1.25858
G1 X109.586 Y109.558 E1.37068
G1 X100.414 Y109.558 E1.47818
G1 X100.414 Y109.504 E1.47883
G1 X98.998 Y109.504 E1.49542
G1 X97.039 Y109.087 E1.51891
G1 X95.208 Y108.272 E1.54239
G1 X93.587 Y107.095 E1.56588
G1 X92.247 Y105.606 E1.58936
G1 X91.245 Y103.871 E1.61284
G1 X90.626 Y101.965 E1.63633
G1 X90.417 Y99.973 E1.65981
G1 X90.626 Y97.980 E1.68329
G1 X91.245 Y96.075 E1.70678
G1 X92.247 Y94.340 E1.73026
G1 X93.504 Y92.943 E1.75229
G1 F1800.000 E0.75229
G92 E0
G1 Z1.000 F7800.000
G1 X93.587 Y92.851
G1 F1800.000 E1.00000
G1 X95.208 Y91.673 F600.000 E1.02348
G1 X97.039 Y90.858 E1.04697
G1 X98.998 Y90.442 E1.07045
G1 X101.002 Y90.442 E1.09394
G1 X102.961 Y90.858 E1.11742
G1 X104.792 Y91.673 E1.14090
G1 X106.413 Y92.851 E1.16439
G1 X107.753 Y94.340 E1.18787
G1 X108.755 Y96.075 E1.21135
G1 X109.374 Y97.980 E1.23484
G1 X109.586 Y99.994 E1.25858
G1 X109.586 Y109.558 E1.37068
G1 X100.414 Y109.558 E1.47818
G1 X100.414 Y109.504 E1.47883
G1 X98.998 Y109.504 E1.49542
G1 X97.039 Y109.087 E1.51891
G1 X95.208 Y108.272 E1.54239
G1 X93.587 Y107.095 E1.56588
G1 X92.247 Y105.606 E1.58936
G1 X91.245 Y103.871 E1.61284
G1 X90.626 Y101.965 E1.63633
G1 X90.417 Y99.973 E1.65981
G1 X90.626 Y97.980 E1.68329
G1 X91.245 Y96.075 E1.70678
G1 X92.247 Y94.340 E1.73026
G1 X93.504 Y92.943 E1.75229
G1 F1800.000 E0.75229
G92 E0
G1 Z1.100 F7800.000
G1 X93.587 Y92.851
G1 F1800.000 E1.00000
G1 X95.208 Y91.673 F600.000 E1.02348
G1 X97.039 Y90.858 E1.04697
G1 X98.998 Y90.442 E1.07045
G1 X101.002 Y90.442 E1.09394
G1 X102.961 Y90.858 E1.11742
G1 X104.792 Y91.673 E1.14090
G1 X106.413 Y92.851 E1.16439
G1 X107.753 Y94.340 E1.18787
G1 X108.755 Y96.075 E1.21135
G1 X109.374 Y97.980 E1.23484
G1 X109.586 Y99.994 E1.25858
G1 X109.586 Y109.558 E1.37068
G1 X100.414 Y109.558 E1.47818
G1 X100.414 Y109.504 E1.47883
G1 X98.998 Y109.504 E1.49542
G1 X97.039 Y109.087 E1.51891
G1 X95.208 Y108.272 E1.54239
G1 X93.587 Y107.095 E1.56587
G1 X92.247 Y105.606 E1.58936
G1 X91.245 Y103.871 E1.61284
G1 X90.626 Y101.965 E1.63633
G1 X90.417 Y99.973 E1.65981
G1 X90.626 Y97.980 E1.68329
G1 X91.245 Y96.075 E1.70678
G1 X92.247 Y94.340 E1.73026
G1 X93.504 Y92.943 E1.75229
G1 F1800.000 E0.75229
G92 E0
G1 Z1.200 F7800.000
G1 X93.587 Y92.851
G1 F1800.000 E1.00000
G1 X95.208 Y91.673 F600.000 E1.02348
G1 X97.039 Y90.858 E1.04697
G1 X98.998 Y90.442 E1.07045
G1 X101.002 Y90.442 E1.09394
G1 X102.961 Y90.858 E1.11742
G1 X104.792 Y91.673 E1.14090
G1 X106.413 Y92.851 E1.16439
G1 X107.753 Y94.340 E1.18787
G1 X108.755 Y96.075 E1.21135
G1 X109.374 Y97.980 E1.23484
G1 X109.586 Y99.994 E1.25858
G1 X109.586 Y109.558 E1.37068
G1 X100.414 Y109.558 E1.47818
G1 X100.414 Y109.504 E1.47883
G1 X98.998 Y109.504 E1.49542
G1 X97.039 Y109.087 E1.51891
G1 X95.208 Y108.272 E1.54239
G1 X93.587 Y107.095 E1.56587
G1 X92.247 Y105.606 E1.58936
G1 X91.245 Y103.871 E1.61284
G1 X90.626 Y101.965 E1.63633
G1 X90.417 Y99.973 E1.65981
G1 X90.626 Y97.980 E1.68329
G1 X91.245 Y96.075 E1.70678
G1 X92.247 Y94.340 E1.73026
G1 X93.504 Y92.943 E1.75229
G1 F1800.000 E0.75229
G92 E0
G1 Z1.300 F7800.000
G1 X93.587 Y92.851
G1 F1800.000 E1.00000
G1 X95.208 Y91.673 F600.000 E1.02348
G1 X97.039 Y90.858 E1.04697
G1 X98.998 Y90.442 E1.07045
G1 X101.002 Y90.442 E1.09394
G1 X102.961 Y90.858 E1.11742
G1 X104.792 Y91.673 E1.14090
G1 X106.413 Y92.851 E1.16439
G1 X107.753 Y94.340 E1.18787
G1 X108.755 Y96.075 E1.21135
G1 X109.374 Y97.980 E1.23484
G1 X109.586 Y99.994 E1.25858
G1 X109.586 Y109.558 E1.37068
G1 X100.414 Y109.558 E1.47818
G1 X100.414 Y109.504 E1.47883
G1 X98.998 Y109.504 E1.49542
G1 X97.039 Y109.087 E1.51891
G1 X95.208 Y108.272 E1.54239
G1 X93.587 Y107.095 E1.56587
G1 X92.247 Y105.606 E1.58936
G1 X91.245 Y103.871 E1.61284
G1 X90.626 Y101.965 E1.63633
G1 X90.417 Y99.973 E1.65981
G1 X90.626 Y97.980 E1.68329
G1 X91.245 Y96.075 E1.70678
G1 X92.247 Y94.340 E1.73026
G1 X93.504 Y92.943 E1.75229
G1 F1800.000 E0.75229
G92 E0
G1 Z1.400 F7800.000
G1 X93.587 Y92.851
G1 F1800.000 E1.00000
G1 X95.208 Y91.673 F600.000 E1.02348
G1 X97.039 Y90.858 E1.04697
G1 X98.998 Y90.442 E1.07045
G1 X101.002 Y90.442 E1.09394
G1 X102.961 Y90.858 E1.11742
G1 X104.792 Y91.673 E1.14090
G1 X106.413 Y92.851 E1.16439
G1 X107.753 Y94.340 E1.18787
G1 X108.755 Y96.075 E1.21135
G1 X109.374 Y97.980 E1.23484
G1 X109.586 Y99.994 E1.25858
G1 X109.586 Y109.558 E1.37068
G1 X100.414 Y109.558 E1.47818
G1 X100.414 Y109.504 E1.47883
G1 X98.998 Y109.504 E1.49542
G1 X97.039 Y109.087 E1.51891
G1 X95.208 Y108.272 E1.54239
G1 X93.587 Y107.094 E1.56588
G1 X92.247 Y105.606 E1.58936
G1 X91.245 Y103.871 E1.61284
G1 X90.626 Y101.965 E1.63633
G1 X90.417 Y99.973 E1.65981
G1 X90.626 Y97.980 E1.68329
G1 X91.245 Y96.075 E1.70678
G1 X92.247 Y94.340 E1.73026
G1 X93.504 Y92.943 E1.75229
G1 F1800.000 E0.75229
G92 E0
G1 Z1.500 F7800.000
G1 X93.587 Y92.851
G1 F1800.000 E1.00000
G1 X95.208 Y91.673 F600.000 E1.02348
G1 X97.039 Y90.858 E1.04697
G1 X98.998 Y90.442 E1.07045
G1 X101.002 Y90.442 E1.09394
G1 X102.961 Y90.858 E1.11742
G1 X104.792 Y91.673 E1.14090
G1 X106.413 Y92.851 E1.16439
G1 X107.753 Y94.340 E1.18787
G1 X108.755 Y96.075 E1.21135
G1 X109.374 Y97.980 E1.23484
G1 X109.586 Y99.994 E1.25858
G1 X109.586 Y109.558 E1.37068
G1 X100.414 Y109.558 E1.47818
G1 X100.414 Y109.504 E1.47883
G1 X98.998 Y109.504 E1.49542
G1 X97.039 Y109.087 E1.51891
G1 X95.208 Y108.272 E1.54239
G1 X93.587 Y107.094 E1.56588
G1 X92.247 Y105.606 E1.58936
G1 X91.245 Y103.871 E1.61284
G1 X90.626 Y101.965 E1.63633
G1 X90.417 Y99.973 E1.65981
G1 X90.626 Y97.980 E1.68329
G1 X91.245 Y96.075 E1.70678
G1 X92.247 Y94.340 E1.73026
G1 X93.504 Y92.943 E1.75229
G1 F1800.000 E0.75229
G92 E0
G1 Z1.600 F7800.000
G1 X93.587 Y92.851
G1 F1800.000 E1.00000
G1 X95.208 Y91.673 F600.000 E1.02348
G1 X97.039 Y90.858 E1.04697
G1 X98.998 Y90.442 E1.07045
G1 X101.002 Y90.442 E1.09394
G1 X102.961 Y90.858 E1.11742
G1 X104.792 Y91.673 E1.14090
G1 X106.413 Y92.851 E1.16439
G1 X107.753 Y94.340 E1.18787
G1 X108.755 Y96.075 E1.21135
G1 X109.374 Y97.980 E1.23484
G1 X109.586 Y99.994 E1.25858
G1 X109.586 Y109.558 E1.37068
G1 X100.414 Y109.558 E1.47818
G1 X100.414 Y109.504 E1.47883
G1 X98.998 Y109.504 E1.49542
G1 X97.039 Y109.087 E1.51891
G1 X95.208 Y108.272 E1.54239
G1 X93.587 Y107.094 E1.56588
G1 X92.247 Y105.606 E1.58936
G1 X91.245 Y103.871 E1.61284
G1 X90.626 Y101.965 E1.63633
G1 X90.417 Y99.973 E1.65981
G1 X90.626 Y97.980 E1.68329
G1 X91.245 Y96.075 E1.70678
G1 X92.247 Y94.340 E1.73026
G1 X93.504 Y92.943 E1.75229
G1 F1800.000 E0.75229
G92 E0
G1 Z1.700 F7800.000
G1 X93.587 Y92.851
G1 F1800.000 E1.00000
G1 X95.208 Y91.673 F600.000 E1.02348
G1 X97.039 Y90.858 E1.04697
G1 X98.998 Y90.442 E1.07045
G1 X101.002 Y90.442 E1.09394
G1 X102.961 Y90.858 E1.11742
G1 X104.792 Y91.673 E1.14090
G1 X106.413 Y92.851 E1.16439
G1 X107.753 Y94.340 E1.18787
G1 X108.755 Y96.075 E1.21135
G1 X109.374 Y97.980 E1.23484
G1 X109.586 Y99.994 E1.25858
G1 X109.586 Y109.558 E1.37068
G1 X100.414 Y109.558 E1.47818
G1 X100.414 Y109.504 E1.47883
G1 X98.998 Y109.504 E1.49542
G1 X97.039 Y109.087 E1.51891
G1 X95.208 Y108.272 E1.54239
G1 X93.587 Y107.094 E1.56588
G1 X92.247 Y105.606 E1.58936
G1 X91.245 Y103.871 E1.61284
G1 X90.626 Y101.965 E1.63633
G1 X90.417 Y99.973 E1.65981
G1 X90.626 Y97.980 E1.68329
G1 X91.245 Y96.075 E1.70678
G1 X92.247 Y94.340 E1.73026
G1 X93.504 Y92.943 E1.75229
G1 F1800.000 E0.75229
G92 E0
G1 Z1.800 F7800.000
G1 X93.587 Y92.851
G1 F1800.000 E1.00000
G1 X95.208 Y91.673 F600.000 E1.02348
G1 X97.039 Y90.858 E1.04697
G1 X98.998 Y90.442 E1.07045
G1 X101.002 Y90.442 E1.09394
G1 X102.961 Y90.858 E1.11742
G1 X104.792 Y91.673 E1.14090
G1 X106.413 Y92.851 E1.16439
G1 X107.753 Y94.340 E1.18787
G1 X108.755 Y96.075 E1.21135
G1 X109.374 Y97.980 E1.23484
G1 X109.586 Y99.994 E1.25858
G1 X109.586 Y109.558 E1.37068
G1 X100.414 Y109.558 E1.47818
G1 X100.414 Y109.504 E1.47883
G1 X98.998 Y109.504 E1.49542
G1 X97.039 Y109.087 E1.51891
G1 X95.208 Y108.272 E1.54239
G1 X93.587 Y107.094 E1.56588
G1 X92.247 Y105.606 E1.58936
G1 X91.245 Y103.871 E1.61284
G1 X90.626 Y101.965 E1.63633
G1 X90.417 Y99.973 E1.65981
G1 X90.626 Y97.980 E1.68329
G1 X91.245 Y96.075 E1.70678
G1 X92.247 Y94.340 E1.73026
G1 X93.504 Y92.943 E1.75229
G1 F1800.000 E0.75229
G92 E0
G1 Z1.900 F7800.000
G1 X93.587 Y92.851
G1 F1800.000 E1.00000
G1 X95.208 Y91.673 F600.000 E1.02348
G1 X97.039 Y90.858 E1.04697
G1 X98.998 Y90.442 E1.07045
G1 X101.002 Y90.442 E1.09394
G1 X102.961 Y90.858 E1.11742
G1 X104.792 Y91.673 E1.14090
G1 X106.413 Y92.851 E1.16439
G1 X107.753 Y94.340 E1.18787
G1 X108.755 Y96.075 E1.21135
G1 X109.374 Y97.980 E1.23484
G1 X109.586 Y99.994 E1.25858
G1 X109.586 Y109.558 E1.37068
G1 X100.414 Y109.558 E1.47818
G1 X100.414 Y109.504 E1.47883
G1 X98.998 Y109.504 E1.49542
G1 X97.039 Y109.087 E1.51891
G1 X95.208 Y108.272 E1.54239
G1 X93.587 Y107.095 E1.56587
G1 X92.247 Y105.606 E1.58936
G1 X91.245 Y103.871 E1.61284
G1 X90.626 Y101.965 E1.63633
G1 X90.417 Y99.973 E1.65981
G1 X90.626 Y97.980 E1.68329
G1 X91.245 Y96.075 E1.70678
G1 X92.247 Y94.340 E1.73026
G1 X93.504 Y92.943 E1.75229
G1 F1800.000 E0.75229
G92 E0
G1 Z2.000 F7800.000
G1 X93.587 Y92.851
G1 F1800.000 E1.00000
G1 X95.208 Y91.673 F600.000 E1.02348
