; generated by Slic3r 0.9.10b on 2013-11-13 at 13:21:08

; layer_height = 0.1
; perimeters = 0
; top_solid_layers = 0
; bottom_solid_layers = 0
; fill_density = 0
; perimeter_speed = 30
; infill_speed = 60
; travel_speed = 130
; nozzle_diameter = 0.5
; filament_diameter = 3
; extrusion_multiplier = 1
; perimeters extrusion width = 0.85mm
; infill extrusion width = 1.98mm
; solid infill extrusion width = 0.85mm
; top infill extrusion width = 0.85mm
; first layer extrusion width = 1.00mm

G21 ; set units to millimeters
M107
M190 S5 ; wait for bed temperature to be reached
M104 S205 ; set temperature
G28 ; home all axes
G1 Z5 F5000 ; lift nozzle

M109 S205 ; wait for temperature to be reached
G90 ; use absolute coordinates
G92 E0
M82 ; use absolute distances for extrusion
G1 F1800.000 E-1.00000
G92 E0
G1 Z0.500 F7800.000
G1 X88.180 Y87.917
G1 F1800.000 E1.00000
G1 X88.690 Y87.417 F600.000 E1.04510
G1 X89.240 Y86.967 E1.08997
G1 X90.930 Y85.737 E1.22196
G1 X91.540 Y85.337 E1.26802
G1 X92.190 Y85.007 E1.31405
G1 X94.100 Y84.157 E1.44607
G1 X94.780 Y83.897 E1.49204
G1 X95.490 Y83.707 E1.53845
G1 X97.540 Y83.277 E1.67071
G1 X98.240 Y83.167 E1.71546
G1 X98.950 Y83.137 E1.76033
G1 X101.040 Y83.137 E1.89230
G1 X101.750 Y83.167 E1.93718
G1 X102.450 Y83.277 E1.98192
G1 X104.500 Y83.707 E2.11419
G1 X105.220 Y83.897 E2.16121
G1 X105.900 Y84.167 E2.20741
G1 X107.800 Y85.017 E2.33884
G1 X108.440 Y85.347 E2.38431
G1 X109.050 Y85.737 E2.43003
G1 X110.740 Y86.967 E2.56202
G1 X111.280 Y87.407 E2.60600
G1 X111.780 Y87.897 E2.65021
G1 X113.190 Y89.447 E2.78252
G1 X113.660 Y90.027 E2.82966
G1 X114.070 Y90.657 E2.87713
G1 X115.110 Y92.467 E3.00894
G1 X115.430 Y93.097 E3.05356
G1 X115.680 Y93.757 E3.09813
G1 X116.330 Y95.747 E3.23032
G1 X116.520 Y96.447 E3.27612
G1 X116.630 Y97.167 E3.32212
G1 X116.850 Y99.247 E3.45419
G1 X116.890 Y99.967 E3.49973
G1 X116.890 Y109.967 E4.13118
G1 X116.760 Y111.307 E4.21619
G1 X116.370 Y112.607 E4.30190
G1 X115.730 Y113.797 E4.38722
G1 X114.870 Y114.837 E4.47244
G1 X113.830 Y115.697 E4.55765
G1 X112.640 Y116.337 E4.64297
G1 X111.340 Y116.727 E4.72868
G1 X110.000 Y116.857 E4.81369
G1 X100.000 Y116.857 E5.44514
G1 X98.620 Y116.797 E5.53237
G1 X97.500 Y116.657 E5.60364
G1 X95.450 Y116.217 E5.73604
G1 X94.760 Y116.027 E5.78123
G1 X94.100 Y115.777 E5.82580
G1 X92.190 Y114.927 E5.95781
G1 X91.540 Y114.597 E6.00384
G1 X90.930 Y114.197 E6.04990
G1 X89.240 Y112.967 E6.18189
G1 X88.690 Y112.517 E6.22676
G1 X88.180 Y112.017 E6.27186
G1 X86.780 Y110.467 E6.40375
G1 X86.320 Y109.897 E6.45000
G1 X85.920 Y109.277 E6.49659
G1 X84.880 Y107.467 E6.62841
G1 X84.560 Y106.837 E6.67303
G1 X84.310 Y106.177 E6.71759
G1 X83.660 Y104.187 E6.84979
G1 X83.470 Y103.467 E6.89681
G1 X83.350 Y102.737 E6.94352
G1 X83.140 Y100.657 E7.07553
G1 X83.110 Y99.967 E7.11915
G1 X83.140 Y99.277 E7.16276
G1 X83.350 Y97.197 E7.29477
G1 X83.470 Y96.467 E7.34148
G1 X83.660 Y95.747 E7.38850
G1 X84.310 Y93.757 E7.52070
G1 X84.560 Y93.097 E7.56526
G1 X84.880 Y92.467 E7.60988
G1 X85.920 Y90.657 E7.74170
G1 X86.320 Y90.037 E7.78829
G1 X86.780 Y89.467 E7.83454
G1 X88.090 Y88.017 E7.95798
M106 S255
M104 S200 ; set temperature
G1 F1800.000 E6.95798
G92 E0
G1 Z0.600 F7800.000
G1 Z0.700
G1 Z0.800
G1 Z0.900
G1 Z1.000
G1 Z1.100
G1 Z1.200
G1 Z1.300
G1 Z1.400
G1 Z1.500
G1 Z1.600
G1 Z1.700
G1 Z1.800
G1 Z1.900
G1 Z2.000
G1 Z2.100
G1 Z2.200
G1 Z2.300
G1 Z2.400
G1 Z2.500
G1 Z2.600
G1 Z2.700
G1 Z2.800
G1 Z2.900
G1 Z3.000
G1 Z3.100
G1 Z3.200
G1 Z3.300
G1 Z3.400
G1 Z3.500
G1 Z3.600
G1 Z3.700
G1 Z3.800
G1 Z3.900
G1 Z4.000
G1 Z4.100
G1 Z4.200
G1 Z4.300
G1 Z4.400
G1 Z4.500
G1 Z4.600
G1 Z4.700
G1 Z4.800
G1 Z4.900
G1 Z5.000
G1 Z5.100
G1 Z5.200
G1 Z5.300
G1 Z5.400
G1 Z5.500
G1 Z5.600
G1 Z5.700
G1 Z5.800
G1 Z5.900
G1 Z6.000
G1 Z6.100
G1 Z6.200
G1 Z6.300
G1 Z6.400
G1 Z6.500
G1 Z6.600
G1 Z6.700
G1 Z6.800
G1 Z6.900
G1 Z7.000
G1 Z7.100
G1 Z7.200
G1 Z7.300
G1 Z7.400
G1 Z7.500
G1 Z7.600
G1 Z7.700
G1 Z7.800
G1 Z7.900
G1 Z8.000
G1 Z8.100
G1 Z8.200
G1 Z8.300
G1 Z8.400
G1 Z8.500
G1 Z8.600
G1 Z8.700
G1 Z8.800
G1 Z8.900
G1 Z9.000
G1 Z9.100
G1 Z9.200
G1 Z9.300
G1 Z9.400
G1 Z9.500
G1 Z9.600
G1 Z9.700
G1 Z9.800
G1 Z9.900
G1 Z10.000
G1 Z10.100
G1 Z10.200
G1 Z10.300
G1 Z10.400
G1 Z10.500
G1 Z10.600
G1 Z10.700
G1 Z10.800
G1 Z10.900
G1 Z11.000
G1 Z11.100
G1 Z11.200
G1 Z11.300
G1 Z11.400
G1 Z11.500
G1 Z11.600
G1 Z11.700
G1 Z11.800
G1 Z11.900
G1 Z12.000
G1 Z12.100
G1 Z12.200
G1 Z12.300
G1 Z12.400
G1 Z12.500
G1 Z12.600
G1 Z12.700
G1 Z12.800
G1 Z12.900
G1 Z13.000
G1 Z13.100
G1 Z13.200
G1 Z13.300
G1 Z13.400
G1 Z13.500
G1 Z13.600
G1 Z13.700
G1 Z13.800
G1 Z13.900
G1 Z14.000
G1 Z14.100
G1 Z14.200
G1 Z14.300
G1 Z14.400
G1 Z14.500
G1 Z14.600
G1 Z14.700
G1 Z14.800
G1 Z14.900
G1 Z15.000
G1 Z15.100
G1 Z15.200
G1 Z15.300
G1 Z15.400
G1 Z15.500
G1 Z15.600
G1 Z15.700
G1 Z15.800
G1 Z15.900
G1 Z16.000
G1 Z16.100
G1 Z16.200
G1 Z16.300
G1 Z16.400
G1 Z16.500
G1 Z16.600
G1 Z16.700
G1 Z16.800
G1 Z16.900
G1 Z17.000
G1 Z17.100
G1 Z17.200
G1 Z17.300
G1 Z17.400
G1 Z17.500
G1 Z17.600
G1 Z17.700
G1 Z17.800
G1 Z17.900
G1 Z18.000
G1 Z18.100
G1 Z18.200
G1 Z18.300
G1 Z18.400
G1 Z18.500
G1 Z18.600
G1 Z18.700
G1 Z18.800
G1 Z18.900
G1 Z19.000
G1 Z19.100
G1 Z19.200
G1 Z19.300
G1 Z19.400
G1 Z19.500
G1 Z19.600
G1 Z19.700
G1 Z19.800
G1 Z19.900
G1 Z20.000
G1 Z20.100
G1 Z20.200
G1 Z20.300
G1 Z20.400
G1 Z20.500
G1 Z20.600
G1 Z20.700
G1 Z20.800
G1 Z20.900
G1 Z21.000
G1 Z21.100
G1 Z21.200
G1 Z21.300
G1 Z21.400
G1 Z21.500
G1 Z21.600
G1 Z21.700
G1 Z21.800
G1 Z21.900
G1 Z22.000
G1 Z22.100
G1 Z22.200
G1 Z22.300
G1 Z22.400
G1 Z22.500
G1 Z22.600
G1 Z22.700
G1 Z22.800
G1 Z22.900
G1 Z23.000
G1 Z23.100
G1 Z23.200
G1 Z23.300
G1 Z23.400
G1 Z23.500
G1 Z23.600
G1 Z23.700
G1 Z23.800
G1 Z23.900
G1 Z24.000
G1 Z24.100
G1 Z24.200
G1 Z24.300
G1 Z24.400
G1 Z24.500
G1 Z24.600
G1 Z24.700
G1 Z24.800
G1 Z24.900
G1 Z25.000
G1 Z25.100
G1 Z25.200
G1 Z25.300
G1 Z25.400
G1 Z25.500
G1 Z25.600
G1 Z25.700
G1 Z25.800
G1 Z25.900
G1 Z26.000
G1 Z26.100
G1 Z26.200
G1 Z26.300
G1 Z26.400
G1 Z26.500
G1 Z26.600
G1 Z26.700
G1 Z26.800
G1 Z26.900
G1 Z27.000
G1 Z27.100
G1 Z27.200
G1 Z27.300
G1 Z27.400
G1 Z27.500
G1 Z27.600
G1 Z27.700
G1 Z27.800
G1 Z27.900
G1 Z28.000
G1 Z28.100
G1 Z28.200
G1 Z28.300
G1 Z28.400
G1 Z28.500
G1 Z28.600
G1 Z28.700
G1 Z28.800
G1 Z28.900
G1 Z29.000
G1 Z29.100
G1 Z29.200
G1 Z29.300
G1 Z29.400
G1 Z29.500
G1 Z29.600
G1 Z29.700
G1 Z29.800
G1 Z29.900
G1 Z30.000
G1 Z30.100
G1 Z30.200
G1 Z30.300
G1 Z30.400
G1 Z30.500
G1 Z30.600
G1 Z30.700
G1 Z30.800
G1 Z30.900
G1 Z31.000
G1 Z31.100
G1 Z31.200
G1 Z31.300
G1 Z31.400
G1 Z31.500
G1 Z31.600
G1 Z31.700
G1 Z31.800
G1 Z31.900
G1 Z32.000
G1 Z32.100
G1 Z32.200
G1 Z32.300
G1 Z32.400
G1 Z32.500
G1 Z32.600
G1 Z32.700
G1 Z32.800
G1 Z32.900
G1 Z33.000
G1 Z33.100
G1 Z33.200
G1 Z33.300
G1 Z33.400
G1 Z33.500
G1 Z33.600
G1 Z33.700
G1 Z33.800
G1 Z33.900
G1 Z34.000
G1 Z34.100
G1 Z34.200
G1 Z34.300
G1 Z34.400
G1 Z34.500
G1 Z34.600
G1 Z34.700
G1 Z34.800
G1 Z34.900
G1 Z35.000
G1 Z35.100
G1 Z35.200
G1 Z35.300
G1 Z35.400
G1 Z35.500
G1 Z35.600
G1 Z35.700
G1 Z35.800
G1 Z35.900
G1 Z36.000
G1 Z36.100
G1 Z36.200
G1 Z36.300
G1 Z36.400
G1 Z36.500
G1 Z36.600
G1 Z36.700
G1 Z36.800
G1 Z36.900
G1 Z37.000
G1 Z37.100
G1 Z37.200
G1 Z37.300
G1 Z37.400
G1 Z37.500
G1 Z37.600
G1 Z37.700
G1 Z37.800
G1 Z37.900
G1 Z38.000
G1 Z38.100
G1 Z38.200
G1 Z38.300
G1 Z38.400
G1 Z38.500
G1 Z38.600
G1 Z38.700
G1 Z38.800
G1 Z38.900
G1 Z39.000
G1 Z39.100
G1 Z39.200
G1 Z39.300
G1 Z39.400
G1 Z39.500
G1 Z39.600
G1 Z39.700
G1 Z39.800
G1 Z39.900
G1 Z40.000
G1 Z40.100
G1 Z40.200
G1 Z40.300
G1 Z40.400
G1 Z40.500
G1 Z40.600
G1 Z40.700
G1 Z40.800
G1 Z40.900
G1 Z41.000
G1 Z41.100
G1 Z41.200
G1 Z41.300
G1 Z41.400
G1 Z41.500
G1 Z41.600
G1 Z41.700
G1 Z41.800
G1 Z41.900
G1 Z42.000
G1 Z42.100
G1 Z42.200
G1 Z42.300
G1 Z42.400
G1 Z42.500
G1 Z42.600
G1 Z42.700
G1 Z42.800
G1 Z42.900
G1 Z43.000
G1 Z43.100
G1 Z43.200
G1 Z43.300
G1 Z43.400
G1 Z43.500
G1 Z43.600
G1 Z43.700
G1 Z43.800
G1 Z43.900
G1 Z44.000
G1 Z44.100
G1 Z44.200
G1 Z44.300
G1 Z44.400
G1 Z44.500
G1 Z44.600
G1 Z44.700
G1 Z44.800
G1 Z44.900
G1 Z45.000
G1 Z45.100
G1 Z45.200
G1 Z45.300
G1 Z45.400
G1 Z45.500
G1 Z45.600
G1 Z45.700
G1 Z45.800
G1 Z45.900
G1 Z46.000
G1 Z46.100
G1 Z46.200
G1 Z46.300
G1 Z46.400
G1 Z46.500
G1 Z46.600
G1 Z46.700
G1 Z46.800
G1 Z46.900
G1 Z47.000
G1 Z47.100
G1 Z47.200
G1 Z47.300
G1 Z47.400
G1 Z47.500
G1 Z47.600
G1 Z47.700
G1 Z47.800
G1 Z47.900
G1 Z48.000
G1 Z48.100
G1 Z48.200
G1 Z48.300
G1 Z48.400
G1 Z48.500
G1 Z48.600
G1 Z48.700
G1 Z48.800
G1 Z48.900
G1 Z49.000
G1 Z49.100
G1 Z49.200
G1 Z49.300
G1 Z49.400
G1 Z49.500
G1 Z49.600
G1 Z49.700
G1 Z49.800
G1 Z49.900
G1 Z50.000
G1 Z50.100
G1 Z50.200
G1 Z50.300
G1 Z50.400
G1 Z50.500
G1 Z50.600
G1 Z50.700
G1 Z50.800
G1 Z50.900
G1 Z51.000
G1 Z51.100
G1 Z51.200
G1 Z51.300
G1 Z51.400
G1 Z51.500
G1 Z51.600
G1 Z51.700
G1 Z51.800
G1 Z51.900
G1 Z52.000
G1 Z52.100
G1 Z52.200
G1 Z52.300
G1 Z52.400
G1 Z52.500
G1 Z52.600
G1 Z52.700
G1 Z52.800
G1 Z52.900
G1 Z53.000
G1 Z53.100
G1 Z53.200
G1 Z53.300
G1 Z53.400
G1 Z53.500
G1 Z53.600
G1 Z53.700
G1 Z53.800
G1 Z53.900
G1 Z54.000
G1 Z54.100
G1 Z54.200
G1 Z54.300
G1 Z54.400
G1 Z54.500
G1 Z54.600
G1 Z54.700
G1 Z54.800
G1 Z54.900
G1 Z55.000
G1 Z55.100
G1 Z55.200
G1 Z55.300
G1 Z55.400
G1 Z55.500
G1 Z55.600
G1 Z55.700
G1 Z55.800
G1 Z55.900
G1 Z56.000
G1 Z56.100
G1 Z56.200
G1 Z56.300
G1 Z56.400
G1 Z56.500
G1 Z56.600
G1 Z56.700
G1 Z56.800
G1 Z56.900
G1 Z57.000
G1 Z57.100
G1 Z57.200
G1 Z57.300
G1 Z57.400
G1 Z57.500
G1 Z57.600
G1 Z57.700
G1 Z57.800
G1 Z57.900
G1 Z58.000
G1 Z58.100
G1 Z58.200
G1 Z58.300
G1 Z58.400
G1 Z58.500
G1 Z58.600
G1 Z58.700
G1 Z58.800
G1 Z58.900
G1 Z59.000
G1 Z59.100
G1 Z59.200
G1 Z59.300
G1 Z59.400
G1 Z59.500
G1 Z59.600
G1 Z59.700
G1 Z59.800
G1 Z59.900
G1 Z60.000
G1 Z60.100
G1 Z60.200
G1 Z60.300
G1 Z60.400
G1 Z60.500
G1 Z60.600
G1 Z60.700
G1 Z60.800
G1 Z60.900
G1 Z61.000
G1 Z61.100
G1 Z61.200
G1 Z61.300
G1 Z61.400
G1 Z61.500
G1 Z61.600
G1 Z61.700
G1 Z61.800
G1 Z61.900
G1 Z62.000
G1 Z62.100
G1 Z62.200
G1 Z62.300
G1 Z62.400
G1 Z62.500
G1 Z62.600
G1 Z62.700
G1 Z62.800
G1 Z62.900
G1 Z63.000
G1 Z63.100
G1 Z63.200
G1 Z63.300
G1 Z63.400
G1 Z63.500
G1 Z63.600
G1 Z63.700
G1 Z63.800
G1 Z63.900
G1 Z64.000
G1 Z64.100
G1 Z64.200
G1 Z64.300
G1 Z64.400
G1 Z64.500
G1 Z64.600
G1 Z64.700
G1 Z64.800
G1 Z64.900
G1 Z65.000
G1 Z65.100
G1 Z65.200
G1 Z65.300
G1 Z65.400
G1 Z65.500
G1 Z65.600
G1 Z65.700
G1 Z65.800
G1 Z65.900
G1 Z66.000
G1 Z66.100
G1 Z66.200
G1 Z66.300
G1 Z66.400
G1 Z66.500
G1 Z66.600
G1 Z66.700
G1 Z66.800
G1 Z66.900
G1 Z67.000
G1 Z67.100
G1 Z67.200
G1 Z67.300
G1 Z67.400
G1 Z67.500
G1 Z67.600
G1 Z67.700
G1 Z67.800
G1 Z67.900
G1 Z68.000
G1 Z68.100
G1 Z68.200
G1 Z68.300
G1 Z68.400
G1 Z68.500
G1 Z68.600
G1 Z68.700
G1 Z68.800
G1 Z68.900
G1 Z69.000
G1 Z69.100
G1 Z69.200
G1 Z69.300
G1 Z69.400
G1 Z69.500
G1 Z69.600
G1 Z69.700
G1 Z69.800
G1 Z69.900
G1 Z70.000
G1 Z70.100
G1 Z70.200
G1 Z70.300
G1 Z70.400
G1 Z70.500
G1 Z70.600
G1 Z70.700
G1 Z70.800
G1 Z70.900
G1 Z71.000
G1 Z71.100
G1 Z71.200
G1 Z71.300
G1 Z71.400
G1 Z71.500
G1 Z71.600
G1 Z71.700
G1 Z71.800
G1 Z71.900
G1 Z72.000
G1 Z72.100
G1 Z72.200
G1 Z72.300
G1 Z72.400
G1 Z72.500
G1 Z72.600
G1 Z72.700
G1 Z72.800
G1 Z72.900
G1 Z73.000
G1 Z73.100
G1 Z73.200
G1 Z73.300
G1 Z73.400
G1 Z73.500
G1 Z73.600
G1 Z73.700
G1 Z73.800
G1 Z73.900
G1 Z74.000
G1 Z74.100
G1 Z74.200
G1 Z74.300
G1 Z74.400
G1 Z74.500
G1 Z74.600
G1 Z74.700
G1 Z74.800
G1 Z74.900
G1 Z75.000
G1 Z75.100
G1 Z75.200
G1 Z75.300
G1 Z75.400
G1 Z75.500
G1 Z75.600
G1 Z75.700
G1 Z75.800
G1 Z75.900
G1 Z76.000
G1 Z76.100
G1 Z76.200
G1 Z76.300
G1 Z76.400
G1 Z76.500
G1 Z76.600
G1 Z76.700
G1 Z76.800
G1 Z76.900
G1 Z77.000
G1 Z77.100
G1 Z77.200
G1 Z77.300
G1 Z77.400
G1 Z77.500
G1 Z77.600
G1 Z77.700
G1 Z77.800
G1 Z77.900
G1 Z78.000
G1 Z78.100
G1 Z78.200
G1 Z78.300
G1 Z78.400
G1 Z78.500
G1 Z78.600
G1 Z78.700
G1 Z78.800
G1 Z78.900
G1 Z79.000
G1 Z79.100
G1 Z79.200
G1 Z79.300
G1 Z79.400
G1 Z79.500
G1 Z79.600
G1 Z79.700
G1 Z79.800
G1 Z79.900
G1 Z80.000
G1 Z80.100
G1 Z80.200
G1 Z80.300
G1 Z80.400
G1 Z80.500
G1 Z80.600
G1 Z80.700
G1 Z80.800
G1 Z80.900
G1 Z81.000
G1 Z81.100
G1 Z81.200
G1 Z81.300
G1 Z81.400
G1 Z81.500
G1 Z81.600
G1 Z81.700
G1 Z81.800
G1 Z81.900
G1 Z82.000
G1 Z82.100
G1 Z82.200
G1 Z82.300
G1 Z82.400
G1 Z82.500
G1 Z82.600
G1 Z82.700
G1 Z82.800
G1 Z82.900
G1 Z83.000
G1 Z83.100
G1 Z83.200
G1 Z83.300
G1 Z83.400
G1 Z83.500
G1 Z83.600
G1 Z83.700
G1 Z83.800
G1 Z83.900
G1 Z84.000
G1 Z84.100
G1 Z84.200
G1 Z84.300
G1 Z84.400
G1 Z84.500
G1 Z84.600
G1 Z84.700
G1 Z84.800
G1 Z84.900
G1 Z85.000
G1 Z85.100
G1 Z85.200
G1 Z85.300
G1 Z85.400
G1 Z85.500
G1 Z85.600
G1 Z85.700
G1 Z85.800
G1 Z85.900
G1 Z86.000
G1 Z86.100
G1 Z86.200
G1 Z86.300
G1 Z86.400
G1 Z86.500
G1 Z86.600
G1 Z86.700
G1 Z86.800
G1 Z86.900
G1 Z87.000
G1 Z87.100
G1 Z87.200
G1 Z87.300
G1 Z87.400
G1 Z87.500
G1 Z87.600
G1 Z87.700
G1 Z87.800
G1 Z87.900
G1 Z88.000
G1 Z88.100
G1 Z88.200
G1 Z88.300
G1 Z88.400
G1 Z88.500
G1 Z88.600
G1 Z88.700
G1 Z88.800
G1 Z88.900
G1 Z89.000
G1 Z89.100
G1 Z89.200
G1 Z89.300
G1 Z89.400
G1 Z89.500
G1 Z89.600
G1 Z89.700
G1 Z89.800
G1 Z89.900
G1 Z90.000
G1 Z90.100
G1 Z90.200
G1 Z90.300
G1 Z90.400
G1 Z90.500
G1 Z90.600
G1 Z90.700
G1 Z90.800
G1 Z90.900
G1 Z91.000
G1 Z91.100
G1 Z91.200
G1 Z91.300
G1 Z91.400
G1 Z91.500
G1 Z91.600
G1 Z91.700
G1 Z91.800
G1 Z91.900
G1 Z92.000
G1 Z92.100
G1 Z92.200
G1 Z92.300
G1 Z92.400
G1 Z92.500
G1 Z92.600
G1 Z92.700
G1 Z92.800
G1 Z92.900
G1 Z93.000
G1 Z93.100
G1 Z93.200
G1 Z93.300
G1 Z93.400
G1 Z93.500
G1 Z93.600
G1 Z93.700
G1 Z93.800
G1 Z93.900
G1 Z94.000
G1 Z94.100
G1 Z94.200
G1 Z94.300
G1 Z94.400
G1 Z94.500
G1 Z94.600
G1 Z94.700
G1 Z94.800
G1 Z94.900
G1 Z95.000
G1 Z95.100
G1 Z95.200
G1 Z95.300
G1 Z95.400
G1 Z95.500
G1 Z95.600
G1 Z95.700
G1 Z95.800
G1 Z95.900
G1 Z96.000
G1 Z96.100
G1 Z96.200
G1 Z96.300
G1 Z96.400
G1 Z96.500
G1 Z96.600
G1 Z96.700
G1 Z96.800
G1 Z96.900
G1 Z97.000
G1 Z97.100
G1 Z97.200
G1 Z97.300
G1 Z97.400
G1 Z97.500
G1 Z97.600
G1 Z97.700
G1 Z97.800
G1 Z97.900
G1 Z98.000
G1 Z98.100
G1 Z98.200
G1 Z98.300
G1 Z98.400
G1 Z98.500
G1 Z98.600
G1 Z98.700
G1 Z98.800
G1 Z98.900
G1 Z99.000
G1 Z99.100
G1 Z99.200
G1 Z99.300
G1 Z99.400
G1 Z99.500
G1 Z99.600
G1 Z99.700
G1 Z99.800
G1 Z99.900
G1 Z100.000
M107
M104 S0 ; turn off temperature
G28 X0  ; home X axis
M84     ; disable motors

; filament used = 6.0mm (0.0cm3)
