; generated by Slic3r 0.9.10b on 2014-03-26 at 19:00:28

; layer_height = 0.4
; perimeters = 3
; top_solid_layers = 3
; bottom_solid_layers = 3
; fill_density = 0.4
; perimeter_speed = 30
; infill_speed = 60
; travel_speed = 130
; nozzle_diameter = 0.5
; filament_diameter = 3
; extrusion_multiplier = 2
; perimeters extrusion width = 0.53mm
; infill extrusion width = 0.53mm
; solid infill extrusion width = 0.53mm
; top infill extrusion width = 0.53mm
; first layer extrusion width = 0.70mm

G21 ; set units to millimeters
M107
M104 S172 ; set temperature
G28 ; home all axes
G1 Z5 F5000 ; lift nozzle

M109 S172 ; wait for temperature to be reached
G90 ; use absolute coordinates
G92 E0
M82 ; use absolute distances for extrusion
G1 F1800.000 E-1.00000
G92 E0
G1 Z0.350 F7800.000
G1 X88.360 Y88.077
G1 F1800.000 E1.00000
G1 X88.850 Y87.587 F540.000 E1.04509
G1 X89.380 Y87.157 E1.08950
G1 X91.070 Y85.927 E1.22551
G1 X91.660 Y85.547 E1.27118
G1 X92.280 Y85.227 E1.31658
G1 X94.190 Y84.377 E1.45261
G1 X94.850 Y84.127 E1.49854
G1 X95.530 Y83.937 E1.54448
G1 X97.580 Y83.507 E1.68078
G1 X98.260 Y83.407 E1.72550
G1 X98.950 Y83.367 E1.77048
G1 X101.040 Y83.367 E1.90647
G1 X101.730 Y83.407 E1.95145
G1 X102.410 Y83.507 E1.99617
G1 X104.460 Y83.937 E2.13247
G1 X105.140 Y84.127 E2.17841
G1 X105.810 Y84.377 E2.22494
G1 X107.710 Y85.227 E2.36039
G1 X108.320 Y85.537 E2.40491
G1 X108.890 Y85.917 E2.44949
G1 X110.590 Y87.147 E2.58603
G1 X111.140 Y87.577 E2.63145
G1 X111.630 Y88.077 E2.67701
G1 X113.030 Y89.627 E2.81292
G1 X113.480 Y90.177 E2.85916
G1 X113.860 Y90.767 E2.90482
G1 X114.900 Y92.577 E3.04066
G1 X115.210 Y93.187 E3.08518
G1 X115.460 Y93.827 E3.12989
G1 X116.110 Y95.817 E3.26612
G1 X116.290 Y96.497 E3.31189
G1 X116.400 Y97.187 E3.35735
G1 X116.620 Y99.267 E3.49346
G1 X116.660 Y99.967 E3.53908
G1 X116.660 Y109.967 E4.18978
G1 X116.530 Y111.267 E4.27480
G1 X116.150 Y112.517 E4.35981
G1 X115.540 Y113.667 E4.44452
G1 X114.710 Y114.677 E4.52958
G1 X113.700 Y115.507 E4.61465
G1 X112.550 Y116.117 E4.69936
G1 X111.300 Y116.497 E4.78437
G1 X110.000 Y116.627 E4.86938
G1 X100.000 Y116.627 E5.52009
G1 X98.630 Y116.567 E5.60932
G1 X97.550 Y116.427 E5.68018
G1 X95.500 Y115.987 E5.81661
G1 X94.840 Y115.807 E5.86113
G1 X94.190 Y115.557 E5.90645
G1 X92.280 Y114.707 E6.04248
G1 X91.660 Y114.387 E6.08788
G1 X91.070 Y114.007 E6.13355
G1 X89.380 Y112.777 E6.26956
G1 X88.850 Y112.347 E6.31397
G1 X88.360 Y111.857 E6.35906
G1 X86.960 Y110.307 E6.49497
G1 X86.510 Y109.757 E6.54121
G1 X86.130 Y109.167 E6.58688
G1 X85.090 Y107.357 E6.72271
G1 X84.780 Y106.747 E6.76724
G1 X84.530 Y106.107 E6.81195
G1 X83.880 Y104.117 E6.94817
G1 X83.700 Y103.427 E6.99457
G1 X83.590 Y102.717 E7.04132
G1 X83.380 Y100.637 E7.17736
G1 X83.340 Y99.967 E7.22103
G1 X83.380 Y99.297 E7.26471
G1 X83.590 Y97.217 E7.40074
G1 X83.700 Y96.507 E7.44749
G1 X83.880 Y95.817 E7.49389
G1 X84.530 Y93.827 E7.63012
G1 X84.780 Y93.187 E7.67483
G1 X85.090 Y92.577 E7.71935
G1 X86.130 Y90.767 E7.85519
G1 X86.510 Y90.177 E7.90085
G1 X86.960 Y89.627 E7.94709
G1 X88.294 Y88.151 E8.07659
G1 F1800.000 E7.07659
G92 E0
G1 X94.414 Y93.769 F7800.000
G1 F1800.000 E1.00000
G1 X95.826 Y92.743 F540.000 E1.11356
G1 X97.420 Y92.033 E1.22713
G1 X99.127 Y91.670 E1.34069
G1 X100.873 Y91.670 E1.45426
G1 X102.580 Y92.033 E1.56782
G1 X104.174 Y92.743 E1.68139
G1 X105.586 Y93.769 E1.79495
G1 X106.754 Y95.066 E1.90852
G1 X107.627 Y96.577 E2.02208
G1 X108.166 Y98.237 E2.13565
G1 X108.357 Y100.059 E2.25485
G1 X108.357 Y108.330 E2.79306
G1 X101.643 Y108.330 E3.22998
G1 X101.643 Y108.275 E3.23354
G1 X99.127 Y108.275 E3.39722
G1 X97.420 Y107.912 E3.51078
G1 X95.826 Y107.202 E3.62435
G1 X94.414 Y106.177 E3.73791
G1 X93.246 Y104.880 E3.85148
G1 X92.373 Y103.368 E3.96504
G1 X91.834 Y101.708 E4.07861
G1 X91.652 Y99.973 E4.19217
G1 X91.834 Y98.237 E4.30574
G1 X92.373 Y96.577 E4.41930
G1 X93.246 Y95.066 E4.53287
G1 X94.348 Y93.842 E4.64002
G1 X93.972 Y93.278 F7800.000
G1 X95.496 Y92.171 F540.000 E4.76257
G1 X97.216 Y91.405 E4.88512
G1 X99.058 Y91.013 E5.00767
G1 X100.942 Y91.013 E5.13023
G1 X102.784 Y91.405 E5.25278
G1 X104.504 Y92.171 E5.37533
G1 X106.028 Y93.278 E5.49789
G1 X107.288 Y94.677 E5.62044
G1 X108.230 Y96.308 E5.74299
G1 X108.812 Y98.100 E5.86554
G1 X109.014 Y100.024 E5.99148
G1 X109.014 Y108.987 E6.57468
G1 X100.986 Y108.987 E7.09712
G1 X100.986 Y108.932 E7.10068
G1 X99.058 Y108.932 E7.22609
G1 X97.216 Y108.541 E7.34865
G1 X95.496 Y107.775 E7.47120
G1 X93.972 Y106.668 E7.59375
G1 X92.712 Y105.268 E7.71631
G1 X91.770 Y103.637 E7.83886
G1 X91.188 Y101.846 E7.96141
G1 X90.991 Y99.973 E8.08396
G1 X91.188 Y98.100 E8.20652
G1 X91.770 Y96.308 E8.32907
G1 X92.712 Y94.677 E8.45162
G1 X93.906 Y93.351 E8.56776
G1 X93.530 Y92.787 F7800.000
G1 X95.165 Y91.598 F378.000 E8.69930
G1 X97.012 Y90.776 E8.83084
G1 X98.989 Y90.356 E8.96238
G1 X101.011 Y90.356 E9.09392
G1 X102.988 Y90.776 E9.22546
G1 X104.835 Y91.598 E9.35700
G1 X106.470 Y92.787 E9.48854
G1 X107.823 Y94.289 E9.62008
G1 X108.834 Y96.040 E9.75162
G1 X109.458 Y97.962 E9.88316
G1 X109.671 Y99.990 E10.01583
G1 X109.671 Y109.644 E10.64404
G1 X100.329 Y109.644 E11.25198
G1 X100.329 Y109.589 E11.25555
G1 X98.989 Y109.589 E11.34270
G1 X97.012 Y109.169 E11.47424
G1 X95.165 Y108.347 E11.60578
G1 X93.530 Y107.159 E11.73732
G1 X92.177 Y105.656 E11.86886
G1 X91.166 Y103.906 E12.00040
G1 X90.542 Y101.983 E12.13194
G1 X90.330 Y99.973 E12.26348
G1 X90.542 Y97.962 E12.39502
G1 X91.166 Y96.040 E12.52656
G1 X92.177 Y94.289 E12.65810
G1 X93.464 Y92.860 E12.78323
G1 X94.147 Y93.011 F7800.000
G1 X103.197 Y92.829
G1 X107.213 Y96.845 F1080.000 E13.15761
G1 X107.666 Y98.239 E13.25429
G1 X101.775 Y92.349 E13.80350
G1 X100.631 Y92.146 E13.88010
G1 X107.800 Y99.315 E14.54852
G1 X107.881 Y100.338 E14.61612
G1 X99.690 Y92.146 E15.37985
G1 X98.824 Y92.222 E15.43718
G1 X107.881 Y101.279 E16.28169
G1 X107.881 Y102.221 E16.34376
G1 X98.047 Y92.387 E17.26066
G1 X97.319 Y92.600 E17.31071
G1 X107.881 Y103.162 E18.29554
G1 X107.881 Y104.104 E18.35761
G1 X96.667 Y92.890 E19.40318
G1 X96.024 Y93.188 E19.44993
G1 X107.881 Y105.045 E20.55549
G1 X107.881 Y105.987 E20.61757
G1 X95.478 Y93.584 E21.77397
G1 X94.933 Y93.980 E21.81841
G1 X107.881 Y106.928 E23.02566
G1 X107.865 Y107.854 E23.08668
G1 X94.451 Y94.439 E24.33740
G1 X94.005 Y94.935 E24.38136
G1 X106.924 Y107.854 E25.58588
G1 X105.982 Y107.854 E25.64796
G1 X93.576 Y95.447 E26.80470
G1 X93.231 Y96.044 E26.85014
G1 X105.040 Y107.854 E27.95123
G1 X104.099 Y107.854 E28.01330
G1 X92.886 Y96.641 E29.05874
G1 X92.631 Y97.327 E29.10699
G1 X103.157 Y107.854 E30.08849
G1 X102.216 Y107.854 E30.15057
G1 X92.400 Y98.037 E31.06581
G1 X92.251 Y98.830 E31.11898
G1 X101.220 Y107.799 E31.95522
G1 X100.278 Y107.799 E32.01730
G1 X92.161 Y99.682 E32.77410
G1 X92.203 Y100.666 E32.83903
G1 X99.337 Y107.799 E33.50410
G1 X98.184 Y107.588 E33.58137
G1 X92.350 Y101.753 E34.12534
G1 X92.803 Y103.148 E34.22203
G1 X96.745 Y107.090 E34.58959
M106 S255
M104 S170 ; set temperature
G1 F1800.000 E33.58959
G92 E0
G1 Z0.750 F7800.000
G1 X95.653 Y107.502
G1 F1800.000 E1.00000
G1 X94.183 Y106.433 F889.571 E1.10689
G1 X92.967 Y105.083 E1.21378
G1 X92.058 Y103.509 E1.32066
G1 X91.496 Y101.780 E1.42755
G1 X91.306 Y99.973 E1.53444
G1 X91.496 Y98.165 E1.64133
G1 X92.058 Y96.437 E1.74821
G1 X92.967 Y94.863 E1.85510
G1 X94.183 Y93.512 E1.96199
G1 X95.653 Y92.444 E2.06888
G1 X97.313 Y91.704 E2.17577
G1 X99.091 Y91.326 E2.28265
G1 X100.909 Y91.326 E2.38954
G1 X102.687 Y91.704 E2.49643
G1 X104.347 Y92.444 E2.60332
G1 X105.817 Y93.512 E2.71020
G1 X107.033 Y94.863 E2.81709
G1 X107.942 Y96.437 E2.92398
G1 X108.504 Y98.165 E3.03087
G1 X108.701 Y100.041 E3.14178
G1 X108.701 Y108.674 E3.64948
G1 X101.299 Y108.674 E4.08479
G1 X101.299 Y108.619 E4.08801
G1 X99.091 Y108.619 E4.21786
G1 X97.313 Y108.241 E4.32474
G1 X95.724 Y107.533 E4.42705
G1 X95.392 Y107.954 F7800.000
G1 X93.833 Y106.822 F889.571 E4.54036
G1 X92.544 Y105.390 E4.65367
G1 X91.581 Y103.721 E4.76698
G1 X90.985 Y101.889 E4.88029
G1 X90.784 Y99.973 E4.99361
G1 X90.985 Y98.056 E5.10692
G1 X91.581 Y96.224 E5.22023
G1 X92.544 Y94.555 E5.33354
G1 X93.833 Y93.124 E5.44685
G1 X95.392 Y91.991 E5.56016
G1 X97.152 Y91.207 E5.67348
G1 X99.037 Y90.807 E5.78679
G1 X100.963 Y90.807 E5.90010
G1 X102.848 Y91.207 E6.01341
G1 X104.608 Y91.991 E6.12672
G1 X106.167 Y93.124 E6.24004
G1 X107.456 Y94.555 E6.35335
G1 X108.419 Y96.224 E6.46666
G1 X109.015 Y98.056 E6.57997
G1 X109.221 Y100.013 E6.69570
G1 X109.221 Y109.193 E7.23556
G1 X100.779 Y109.193 E7.73199
G1 X100.779 Y109.138 E7.73521
G1 X99.037 Y109.138 E7.83771
G1 X97.152 Y108.738 E7.95102
G1 X95.463 Y107.986 E8.05975
G1 X95.131 Y108.407 F7800.000
G1 X93.483 Y107.210 F622.699 E8.17948
G1 X92.121 Y105.697 E8.29922
G1 X91.103 Y103.934 E8.41895
G1 X90.474 Y101.997 E8.53869
G1 X90.261 Y99.973 E8.65842
G1 X90.474 Y97.948 E8.77816
G1 X91.103 Y96.012 E8.89790
G1 X92.121 Y94.248 E9.01763
G1 X93.483 Y92.735 E9.13737
G1 X95.131 Y91.539 E9.25710
G1 X96.991 Y90.711 E9.37684
G1 X98.982 Y90.287 E9.49657
G1 X101.018 Y90.287 E9.61631
G1 X103.009 Y90.711 E9.73605
G1 X104.869 Y91.539 E9.85578
G1 X106.516 Y92.735 E9.97552
G1 X107.879 Y94.248 E10.09525
G1 X108.897 Y96.012 E10.21499
G1 X109.526 Y97.948 E10.33473
G1 X109.740 Y99.986 E10.45527
G1 X109.740 Y109.713 E11.02729
G1 X100.260 Y109.713 E11.58484
G1 X100.260 Y109.658 E11.58806
G1 X98.982 Y109.658 E11.66321
G1 X96.991 Y109.235 E11.78294
G1 X95.202 Y108.438 E11.89810
G1 X95.149 Y107.887 F7800.000
G1 X108.324 Y108.125
G1 X108.152 Y108.297 F1779.141 E11.91256
G1 X107.409 Y108.297 E11.95678
G1 X108.324 Y107.382 E12.03378
G1 X108.324 Y106.638 E12.07799
G1 X106.666 Y108.297 E12.21752
G1 X105.922 Y108.297 E12.26174
G1 X108.324 Y105.895 E12.46379
G1 X108.324 Y105.152 E12.50801
G1 X105.179 Y108.297 E12.77260
G1 X104.436 Y108.297 E12.81682
G1 X108.324 Y104.408 E13.14394
G1 X108.324 Y103.665 E13.18815
G1 X103.692 Y108.297 E13.57780
G1 X102.949 Y108.297 E13.62202
G1 X108.324 Y102.922 E14.07420
G1 X108.324 Y102.178 E14.11841
G1 X102.206 Y108.297 E14.63312
G1 X101.517 Y108.242 E14.67421
G1 X108.324 Y101.435 E15.24684
G1 X108.324 Y100.692 E15.29106
G1 X100.774 Y108.242 E15.92622
G1 X100.031 Y108.242 E15.97044
G1 X108.314 Y99.959 E16.66724
G1 X108.243 Y99.287 E16.70747
G1 X99.287 Y108.242 E17.46085
G1 X98.647 Y108.139 E17.49944
G1 X108.172 Y98.614 E18.30075
G1 X108.051 Y97.992 E18.33847
G1 X98.034 Y108.009 E19.18118
G1 X97.423 Y107.877 E19.21839
G1 X107.869 Y97.431 E20.09721
G1 X107.687 Y96.870 E20.13230
G1 X96.908 Y107.648 E21.03905
G1 X96.394 Y107.419 E21.07254
G1 X107.459 Y96.354 E22.00343
G1 X107.187 Y95.882 E22.03580
G1 X95.880 Y107.190 E22.98706
G1 X95.443 Y106.883 E23.01880
G1 X106.915 Y95.411 E23.98391
G1 X106.619 Y94.965 E24.01580
G1 X95.012 Y106.571 E24.99216
G1 X94.582 Y106.258 E25.02381
G1 X106.266 Y94.573 E26.00676
G1 X105.914 Y94.182 E26.03807
G1 X94.203 Y105.893 E27.02325
G1 X93.851 Y105.502 E27.05455
G1 X105.562 Y93.792 E28.03970
G1 X105.131 Y93.479 E28.07135
G1 X93.499 Y105.111 E29.04991
G1 X93.175 Y104.691 E29.08143
G1 X104.701 Y93.166 E30.05098
G1 X104.270 Y92.853 E30.08264
G1 X92.903 Y104.220 E31.03886
G1 X92.631 Y103.749 E31.07122
G1 X103.778 Y92.602 E32.00891
G1 X103.263 Y92.373 E32.04240
G1 X92.374 Y103.263 E32.95846
G1 X92.192 Y102.702 E32.99355
G1 X102.749 Y92.144 E33.88168
G1 X102.170 Y91.980 E33.91747
G1 X92.009 Y102.141 E34.77226
G1 X91.851 Y101.555 E34.80832
G1 X101.557 Y91.849 E35.62485
G1 X100.944 Y91.719 E35.66213
G1 X91.781 Y100.883 E36.43303
G1 X91.710 Y100.210 E36.47326
G1 X100.217 Y91.703 E37.18893
G1 X99.474 Y91.703 E37.23314
G1 X91.741 Y99.435 E37.88363
G1 X91.829 Y98.605 E37.93331
G1 X98.622 Y91.811 E38.50483
G1 X97.678 Y92.012 E38.56224
G1 X92.069 Y97.621 E39.03414
G1 X92.469 Y96.478 E39.10617
G1 X96.443 Y92.504 E39.44049
G1 F1800.000 E38.44049
G92 E0

M107
M104 S0 ; turn off temperature
G28 X0  ; home X axis
M84     ; disable motors

; filament used = 6292.9mm (44.5cm3)
