; generated by Slic3r 0.9.10b on 2014-03-26 at 20:55:35

; layer_height = 0.4
; perimeters = 3
; top_solid_layers = 3
; bottom_solid_layers = 3
; fill_density = 0.4
; perimeter_speed = 30
; infill_speed = 60
; travel_speed = 130
; nozzle_diameter = 0.5
; filament_diameter = 3
; extrusion_multiplier = 1
; perimeters extrusion width = 0.53mm
; infill extrusion width = 0.53mm
; solid infill extrusion width = 0.53mm
; top infill extrusion width = 0.53mm
; first layer extrusion width = 0.70mm

G21 ; set units to millimeters
M107
M104 S169 ; set temperature
G28 ; home all axes
G1 Z5 F5000 ; lift nozzle

M109 S169 ; wait for temperature to be reached
G90 ; use absolute coordinates
G92 E0
M82 ; use absolute distances for extrusion
G1 F1800.000 E-1.00000
G92 E0
G1 Z0.350 F7800.000
G1 X87.380 Y87.197
G1 F1800.000 E1.00000
G1 X87.970 Y86.607 F540.000 E1.02715
G1 X88.610 Y86.097 E1.05377
G1 X90.300 Y84.867 E1.12178
G1 X91.000 Y84.407 E1.14903
G1 X91.750 Y84.027 E1.17638
G1 X93.660 Y83.177 E1.24440
G1 X94.450 Y82.877 E1.27190
G1 X95.260 Y82.657 E1.29920
G1 X97.310 Y82.227 E1.36735
G1 X98.130 Y82.097 E1.39437
G1 X98.950 Y82.057 E1.42108
G1 X101.040 Y82.057 E1.48907
G1 X101.860 Y82.097 E1.51579
G1 X102.680 Y82.227 E1.54280
G1 X104.730 Y82.657 E1.61095
G1 X105.550 Y82.877 E1.63857
G1 X106.350 Y83.177 E1.66637
G1 X108.250 Y84.027 E1.73409
G1 X108.970 Y84.407 E1.76057
G1 X109.660 Y84.847 E1.78720
G1 X111.360 Y86.077 E1.85547
G1 X112.010 Y86.607 E1.88276
G1 X112.610 Y87.197 E1.91013
G1 X114.010 Y88.747 E1.97809
G1 X114.540 Y89.407 E2.00563
G1 X115.000 Y90.117 E2.03315
G1 X116.040 Y91.927 E2.10107
G1 X116.410 Y92.657 E2.12770
G1 X116.710 Y93.427 E2.15458
G1 X117.360 Y95.417 E2.22270
G1 X117.580 Y96.217 E2.24969
G1 X117.710 Y97.047 E2.27702
G1 X117.930 Y99.127 E2.34507
G1 X117.970 Y99.967 E2.37244
G1 X117.970 Y109.967 E2.69779
G1 X117.850 Y111.347 E2.74286
G1 X117.490 Y112.697 E2.78831
G1 X116.900 Y113.957 E2.83358
G1 X116.110 Y115.087 E2.87844
G1 X115.120 Y116.077 E2.92399
G1 X113.990 Y116.867 E2.96885
G1 X112.730 Y117.457 E3.01411
G1 X111.380 Y117.817 E3.05957
G1 X110.000 Y117.937 E3.10464
G1 X100.000 Y117.937 E3.42999
G1 X98.570 Y117.877 E3.47656
G1 X97.280 Y117.707 E3.51889
G1 X95.230 Y117.267 E3.58711
G1 X94.430 Y117.057 E3.61402
G1 X93.660 Y116.757 E3.64090
G1 X91.750 Y115.907 E3.70892
G1 X91.000 Y115.527 E3.73628
G1 X90.300 Y115.067 E3.76353
G1 X88.610 Y113.837 E3.83153
G1 X87.970 Y113.327 E3.85816
G1 X87.380 Y112.737 E3.88531
G1 X85.980 Y111.187 E3.95326
G1 X85.450 Y110.527 E3.98080
G1 X84.990 Y109.817 E4.00833
G1 X83.950 Y108.007 E4.07624
G1 X83.580 Y107.277 E4.10287
G1 X83.280 Y106.507 E4.12976
G1 X82.630 Y104.517 E4.19787
G1 X82.410 Y103.697 E4.22549
G1 X82.280 Y102.847 E4.25347
G1 X82.070 Y100.767 E4.32148
G1 X82.030 Y99.967 E4.34754
G1 X82.070 Y99.167 E4.37361
G1 X82.280 Y97.087 E4.44162
G1 X82.410 Y96.237 E4.46960
G1 X82.630 Y95.417 E4.49722
G1 X83.280 Y93.427 E4.56533
G1 X83.580 Y92.657 E4.59222
G1 X83.950 Y91.927 E4.61885
G1 X84.990 Y90.117 E4.68676
G1 X85.450 Y89.407 E4.71429
G1 X85.980 Y88.747 E4.74183
G1 X87.314 Y87.271 E4.80658
G1 X87.870 Y87.637 F7800.000
G1 X88.410 Y87.097 F540.000 E4.83142
G1 X89.000 Y86.627 E4.85596
G1 X90.690 Y85.397 E4.92397
G1 X91.330 Y84.977 E4.94888
G1 X92.020 Y84.627 E4.97405
G1 X93.930 Y83.777 E5.04207
G1 X94.650 Y83.497 E5.06720
G1 X95.400 Y83.297 E5.09246
G1 X97.450 Y82.867 E5.16060
G1 X98.200 Y82.747 E5.18532
G1 X98.950 Y82.717 E5.20974
G1 X101.040 Y82.717 E5.27774
G1 X101.790 Y82.747 E5.30216
G1 X102.540 Y82.867 E5.32687
G1 X104.590 Y83.297 E5.39502
G1 X105.350 Y83.497 E5.42059
G1 X106.080 Y83.777 E5.44602
G1 X107.980 Y84.627 E5.51374
G1 X108.650 Y84.977 E5.53834
G1 X109.280 Y85.377 E5.56262
G1 X110.980 Y86.607 E5.63089
G1 X111.570 Y87.097 E5.65584
G1 X112.120 Y87.637 E5.68092
G1 X113.520 Y89.187 E5.74887
G1 X114.010 Y89.787 E5.77407
G1 X114.430 Y90.447 E5.79953
G1 X115.470 Y92.257 E5.86744
G1 X115.810 Y92.927 E5.89189
G1 X116.080 Y93.627 E5.91630
G1 X116.730 Y95.617 E5.98441
G1 X116.930 Y96.357 E6.00935
G1 X117.050 Y97.117 E6.03438
G1 X117.270 Y99.197 E6.10243
G1 X117.310 Y99.967 E6.12752
G1 X117.310 Y109.967 E6.45287
G1 X117.170 Y111.397 E6.49962
G1 X116.760 Y112.767 E6.54615
G1 X116.080 Y114.027 E6.59273
G1 X115.170 Y115.137 E6.63943
G1 X114.060 Y116.047 E6.68613
G1 X112.800 Y116.727 E6.73271
G1 X111.430 Y117.137 E6.77924
G1 X110.000 Y117.277 E6.82599
G1 X99.650 Y117.277 E7.16273
G1 X98.600 Y117.227 E7.19693
G1 X97.420 Y117.067 E7.23567
G1 X95.370 Y116.627 E7.30389
G1 X94.630 Y116.427 E7.32883
G1 X93.930 Y116.157 E7.35324
G1 X92.020 Y115.307 E7.42125
G1 X91.330 Y114.957 E7.44643
G1 X90.690 Y114.537 E7.47133
G1 X89.000 Y113.307 E7.53934
G1 X88.410 Y112.837 E7.56388
G1 X87.870 Y112.297 E7.58873
G1 X86.470 Y110.747 E7.65668
G1 X85.980 Y110.147 E7.68188
G1 X85.560 Y109.487 E7.70734
G1 X84.520 Y107.677 E7.77525
G1 X84.180 Y107.007 E7.79970
G1 X83.910 Y106.307 E7.82411
G1 X83.260 Y104.317 E7.89222
G1 X83.050 Y103.557 E7.91787
G1 X82.930 Y102.777 E7.94355
G1 X82.720 Y100.697 E8.01157
G1 X82.690 Y99.967 E8.03534
G1 X82.720 Y99.237 E8.05911
G1 X82.930 Y97.157 E8.12713
G1 X83.050 Y96.377 E8.15280
G1 X83.260 Y95.617 E8.17846
G1 X83.910 Y93.627 E8.24657
G1 X84.180 Y92.927 E8.27098
G1 X84.520 Y92.257 E8.29542
G1 X85.560 Y90.447 E8.36334
G1 X85.980 Y89.787 E8.38879
G1 X86.470 Y89.187 E8.41400
G1 X87.804 Y87.711 E8.47874
G1 X88.360 Y88.077 F7800.000
G1 X88.850 Y87.587 F540.000 E8.50129
G1 X89.380 Y87.157 E8.52349
G1 X91.070 Y85.927 E8.59150
G1 X91.660 Y85.547 E8.61433
G1 X92.280 Y85.227 E8.63703
G1 X94.190 Y84.377 E8.70505
G1 X94.850 Y84.127 E8.72801
G1 X95.530 Y83.937 E8.75098
G1 X97.580 Y83.507 E8.81913
G1 X98.260 Y83.407 E8.84150
G1 X98.950 Y83.367 E8.86398
G1 X101.040 Y83.367 E8.93198
G1 X101.730 Y83.407 E8.95447
G1 X102.410 Y83.507 E8.97683
G1 X104.460 Y83.937 E9.04498
G1 X105.140 Y84.127 E9.06795
G1 X105.810 Y84.377 E9.09122
G1 X107.710 Y85.227 E9.15894
G1 X108.320 Y85.537 E9.18120
G1 X108.890 Y85.917 E9.20349
G1 X110.590 Y87.147 E9.27176
G1 X111.140 Y87.577 E9.29447
G1 X111.630 Y88.077 E9.31725
G1 X113.030 Y89.627 E9.38520
G1 X113.480 Y90.177 E9.40832
G1 X113.860 Y90.767 E9.43116
G1 X114.900 Y92.577 E9.49907
G1 X115.210 Y93.187 E9.52134
G1 X115.460 Y93.827 E9.54369
G1 X116.110 Y95.817 E9.61180
G1 X116.290 Y96.497 E9.63469
G1 X116.400 Y97.187 E9.65742
G1 X116.620 Y99.267 E9.72547
G1 X116.660 Y99.967 E9.74828
G1 X116.660 Y109.967 E10.07364
G1 X116.530 Y111.267 E10.11614
G1 X116.150 Y112.517 E10.15865
G1 X115.540 Y113.667 E10.20100
G1 X114.710 Y114.677 E10.24354
G1 X113.700 Y115.507 E10.28607
G1 X112.550 Y116.117 E10.32842
G1 X111.300 Y116.497 E10.37093
G1 X110.000 Y116.627 E10.41343
G1 X100.000 Y116.627 E10.73879
G1 X98.630 Y116.567 E10.78340
G1 X97.550 Y116.427 E10.81883
G1 X95.500 Y115.987 E10.88705
G1 X94.840 Y115.807 E10.90931
G1 X94.190 Y115.557 E10.93197
G1 X92.280 Y114.707 E10.99998
G1 X91.660 Y114.387 E11.02269
G1 X91.070 Y114.007 E11.04552
G1 X89.380 Y112.777 E11.11352
G1 X88.850 Y112.347 E11.13573
G1 X88.360 Y111.857 E11.15827
G1 X86.960 Y110.307 E11.22623
G1 X86.510 Y109.757 E11.24935
G1 X86.130 Y109.167 E11.27218
G1 X85.090 Y107.357 E11.34010
G1 X84.780 Y106.747 E11.36236
G1 X84.530 Y106.107 E11.38472
G1 X83.880 Y104.117 E11.45283
G1 X83.700 Y103.427 E11.47603
G1 X83.590 Y102.717 E11.49940
G1 X83.380 Y100.637 E11.56742
G1 X83.340 Y99.967 E11.58926
G1 X83.380 Y99.297 E11.61110
G1 X83.590 Y97.217 E11.67911
G1 X83.700 Y96.507 E11.70249
G1 X83.880 Y95.817 E11.72569
G1 X84.530 Y93.827 E11.79380
G1 X84.780 Y93.187 E11.81616
G1 X85.090 Y92.577 E11.83842
G1 X86.130 Y90.767 E11.90634
G1 X86.510 Y90.177 E11.92917
G1 X86.960 Y89.627 E11.95229
G1 X88.294 Y88.151 E12.01704
G1 F1800.000 E11.01704
G92 E0
G1 X94.414 Y93.769 F7800.000
G1 F1800.000 E1.00000
G1 X95.826 Y92.743 F540.000 E1.05678
G1 X97.420 Y92.033 E1.11357
G1 X99.127 Y91.670 E1.17035
G1 X100.873 Y91.670 E1.22713
G1 X102.580 Y92.033 E1.28391
G1 X104.174 Y92.743 E1.34069
G1 X105.586 Y93.769 E1.39748
G1 X106.754 Y95.066 E1.45426
G1 X107.627 Y96.577 E1.51104
G1 X108.166 Y98.237 E1.56782
G1 X108.357 Y100.059 E1.62742
G1 X108.357 Y108.330 E1.89653
G1 X101.643 Y108.330 E2.11499
G1 X101.643 Y108.275 E2.11677
G1 X99.127 Y108.275 E2.19861
G1 X97.420 Y107.912 E2.25539
G1 X95.826 Y107.202 E2.31217
G1 X94.414 Y106.177 E2.36896
G1 X93.246 Y104.880 E2.42574
G1 X92.373 Y103.368 E2.48252
G1 X91.834 Y101.708 E2.53930
G1 X91.652 Y99.973 E2.59609
G1 X91.834 Y98.237 E2.65287
G1 X92.373 Y96.577 E2.70965
G1 X93.246 Y95.066 E2.76643
G1 X94.348 Y93.842 E2.82001
G1 X93.972 Y93.278 F7800.000
G1 X95.496 Y92.171 F540.000 E2.88128
G1 X97.216 Y91.405 E2.94256
G1 X99.058 Y91.013 E3.00384
G1 X100.942 Y91.013 E3.06511
G1 X102.784 Y91.405 E3.12639
G1 X104.504 Y92.171 E3.18767
G1 X106.028 Y93.278 E3.24894
G1 X107.288 Y94.677 E3.31022
G1 X108.230 Y96.308 E3.37150
G1 X108.812 Y98.100 E3.43277
G1 X109.014 Y100.024 E3.49574
G1 X109.014 Y108.987 E3.78734
G1 X100.986 Y108.987 E4.04856
G1 X100.986 Y108.932 E4.05034
G1 X99.058 Y108.932 E4.11305
G1 X97.216 Y108.541 E4.17432
G1 X95.496 Y107.775 E4.23560
G1 X93.972 Y106.668 E4.29688
G1 X92.712 Y105.268 E4.35815
G1 X91.770 Y103.637 E4.41943
G1 X91.188 Y101.846 E4.48071
G1 X90.991 Y99.973 E4.54198
G1 X91.188 Y98.100 E4.60326
G1 X91.770 Y96.308 E4.66453
G1 X92.712 Y94.677 E4.72581
G1 X93.906 Y93.351 E4.78388
G1 X93.530 Y92.787 F7800.000
G1 X95.165 Y91.598 F378.000 E4.84965
G1 X97.012 Y90.776 E4.91542
G1 X98.989 Y90.356 E4.98119
G1 X101.011 Y90.356 E5.04696
G1 X102.988 Y90.776 E5.11273
G1 X104.835 Y91.598 E5.17850
G1 X106.470 Y92.787 E5.24427
G1 X107.823 Y94.289 E5.31004
G1 X108.834 Y96.040 E5.37581
G1 X109.458 Y97.962 E5.44158
G1 X109.671 Y99.990 E5.50792
G1 X109.671 Y109.644 E5.82202
G1 X100.329 Y109.644 E6.12599
G1 X100.329 Y109.589 E6.12777
G1 X98.989 Y109.589 E6.17135
G1 X97.012 Y109.169 E6.23712
G1 X95.165 Y108.347 E6.30289
G1 X93.530 Y107.159 E6.36866
G1 X92.177 Y105.656 E6.43443
G1 X91.166 Y103.906 E6.50020
G1 X90.542 Y101.983 E6.56597
G1 X90.330 Y99.973 E6.63174
G1 X90.542 Y97.962 E6.69751
G1 X91.166 Y96.040 E6.76328
G1 X92.177 Y94.289 E6.82905
G1 X93.464 Y92.860 E6.89161
G1 X94.147 Y93.011 F7800.000
G1 X103.197 Y92.829
G1 X107.213 Y96.845 F1080.000 E7.07880
G1 X107.666 Y98.239 E7.12715
G1 X101.775 Y92.349 E7.40175
G1 X100.631 Y92.146 E7.44005
G1 X107.800 Y99.315 E7.77426
G1 X107.881 Y100.338 E7.80806
G1 X99.690 Y92.146 E8.18993
G1 X98.824 Y92.222 E8.21859
G1 X107.881 Y101.279 E8.64084
G1 X107.881 Y102.221 E8.67188
G1 X98.047 Y92.387 E9.13033
G1 X97.319 Y92.600 E9.15535
G1 X107.881 Y103.162 E9.64777
G1 X107.881 Y104.104 E9.67881
G1 X96.667 Y92.890 E10.20159
G1 X96.024 Y93.188 E10.22497
G1 X107.881 Y105.045 E10.77775
G1 X107.881 Y105.987 E10.80878
G1 X95.478 Y93.584 E11.38698
G1 X94.933 Y93.980 E11.40920
G1 X107.881 Y106.928 E12.01283
G1 X107.865 Y107.854 E12.04334
G1 X94.451 Y94.439 E12.66870
G1 X94.005 Y94.935 E12.69068
G1 X106.924 Y107.854 E13.29294
G1 X105.982 Y107.854 E13.32398
G1 X93.576 Y95.447 E13.90235
G1 X93.231 Y96.044 E13.92507
G1 X105.040 Y107.854 E14.47562
G1 X104.099 Y107.854 E14.50665
G1 X92.886 Y96.641 E15.02937
G1 X92.631 Y97.327 E15.05350
G1 X103.157 Y107.854 E15.54425
G1 X102.216 Y107.854 E15.57528
G1 X92.400 Y98.037 E16.03291
G1 X92.251 Y98.830 E16.05949
G1 X101.220 Y107.799 E16.47761
G1 X100.278 Y107.799 E16.50865
G1 X92.161 Y99.682 E16.88705
G1 X92.203 Y100.666 E16.91951
G1 X99.337 Y107.799 E17.25205
G1 X98.184 Y107.588 E17.29068
G1 X92.350 Y101.753 E17.56267
G1 X92.803 Y103.148 E17.61101
G1 X96.745 Y107.090 E17.79479
M106 S255
M104 S167 ; set temperature
G1 F1800.000 E16.79479

M107
M104 S0 ; turn off temperature
G28 X0  ; home X axis
M84     ; disable motors

; filament used = 3152.3mm (22.3cm3)
