; generated by Slic3r 0.9.10b on 2014-03-26 at 20:04:00

; layer_height = 0.4
; perimeters = 3
; top_solid_layers = 3
; bottom_solid_layers = 3
; fill_density = 0.4
; perimeter_speed = 30
; infill_speed = 60
; travel_speed = 130
; nozzle_diameter = 0.5
; filament_diameter = 3
; extrusion_multiplier = 1.5
; perimeters extrusion width = 0.53mm
; infill extrusion width = 0.53mm
; solid infill extrusion width = 0.53mm
; top infill extrusion width = 0.53mm
; first layer extrusion width = 0.70mm

G21 ; set units to millimeters
M107
M104 S171 ; set temperature
G28 ; home all axes
G1 Z5 F5000 ; lift nozzle

M109 S171 ; wait for temperature to be reached
G90 ; use absolute coordinates
G92 E0
M82 ; use absolute distances for extrusion
G1 F1800.000 E-1.00000
G92 E0
G1 Z0.350 F7800.000
G1 X88.360 Y88.077
G1 F1800.000 E1.00000
G1 X88.850 Y87.587 F540.000 E1.03382
G1 X89.380 Y87.157 E1.06713
G1 X91.070 Y85.927 E1.16913
G1 X91.660 Y85.547 E1.20338
G1 X92.280 Y85.227 E1.23743
G1 X94.190 Y84.377 E1.33946
G1 X94.850 Y84.127 E1.37390
G1 X95.530 Y83.937 E1.40836
G1 X97.580 Y83.507 E1.51058
G1 X98.260 Y83.407 E1.54413
G1 X98.950 Y83.367 E1.57786
G1 X101.040 Y83.367 E1.67986
G1 X101.730 Y83.407 E1.71359
G1 X102.410 Y83.507 E1.74713
G1 X104.460 Y83.937 E1.84935
G1 X105.140 Y84.127 E1.88381
G1 X105.810 Y84.377 E1.91871
G1 X107.710 Y85.227 E2.02029
G1 X108.320 Y85.537 E2.05368
G1 X108.890 Y85.917 E2.08712
G1 X110.590 Y87.147 E2.18952
G1 X111.140 Y87.577 E2.22359
G1 X111.630 Y88.077 E2.25776
G1 X113.030 Y89.627 E2.35969
G1 X113.480 Y90.177 E2.39437
G1 X113.860 Y90.767 E2.42862
G1 X114.900 Y92.577 E2.53050
G1 X115.210 Y93.187 E2.56389
G1 X115.460 Y93.827 E2.59742
G1 X116.110 Y95.817 E2.69959
G1 X116.290 Y96.497 E2.73392
G1 X116.400 Y97.187 E2.76802
G1 X116.620 Y99.267 E2.87009
G1 X116.660 Y99.967 E2.90431
G1 X116.660 Y109.967 E3.39234
G1 X116.530 Y111.267 E3.45610
G1 X116.150 Y112.517 E3.51986
G1 X115.540 Y113.667 E3.58339
G1 X114.710 Y114.677 E3.64719
G1 X113.700 Y115.507 E3.71099
G1 X112.550 Y116.117 E3.77452
G1 X111.300 Y116.497 E3.83828
G1 X110.000 Y116.627 E3.90204
G1 X100.000 Y116.627 E4.39006
G1 X98.630 Y116.567 E4.45699
G1 X97.550 Y116.427 E4.51014
G1 X95.500 Y115.987 E4.61246
G1 X94.840 Y115.807 E4.64585
G1 X94.190 Y115.557 E4.67983
G1 X92.280 Y114.707 E4.78186
G1 X91.660 Y114.387 E4.81591
G1 X91.070 Y114.007 E4.85016
G1 X89.380 Y112.777 E4.95217
G1 X88.850 Y112.347 E4.98548
G1 X88.360 Y111.857 E5.01930
G1 X86.960 Y110.307 E5.12123
G1 X86.510 Y109.757 E5.15591
G1 X86.130 Y109.167 E5.19016
G1 X85.090 Y107.357 E5.29203
G1 X84.780 Y106.747 E5.32543
G1 X84.530 Y106.107 E5.35896
G1 X83.880 Y104.117 E5.46113
G1 X83.700 Y103.427 E5.49593
G1 X83.590 Y102.717 E5.53099
G1 X83.380 Y100.637 E5.63302
G1 X83.340 Y99.967 E5.66577
G1 X83.380 Y99.297 E5.69853
G1 X83.590 Y97.217 E5.80056
G1 X83.700 Y96.507 E5.83562
G1 X83.880 Y95.817 E5.87042
G1 X84.530 Y93.827 E5.97259
G1 X84.780 Y93.187 E6.00612
G1 X85.090 Y92.577 E6.03951
G1 X86.130 Y90.767 E6.14139
G1 X86.510 Y90.177 E6.17564
G1 X86.960 Y89.627 E6.21032
G1 X88.294 Y88.151 E6.30744
G1 F1800.000 E5.30744
G92 E0
G1 X94.414 Y93.769 F7800.000
G1 F1800.000 E1.00000
G1 X95.826 Y92.743 F540.000 E1.08517
G1 X97.420 Y92.033 E1.17035
G1 X99.127 Y91.670 E1.25552
G1 X100.873 Y91.670 E1.34069
G1 X102.580 Y92.033 E1.42587
G1 X104.174 Y92.743 E1.51104
G1 X105.586 Y93.769 E1.59622
G1 X106.754 Y95.066 E1.68139
G1 X107.627 Y96.577 E1.76656
G1 X108.166 Y98.237 E1.85174
G1 X108.357 Y100.059 E1.94113
G1 X108.357 Y108.330 E2.34479
G1 X101.643 Y108.330 E2.67248
G1 X101.643 Y108.275 E2.67516
G1 X99.127 Y108.275 E2.79791
G1 X97.420 Y107.912 E2.88309
G1 X95.826 Y107.202 E2.96826
G1 X94.414 Y106.177 E3.05343
G1 X93.246 Y104.880 E3.13861
G1 X92.373 Y103.368 E3.22378
G1 X91.834 Y101.708 E3.30895
G1 X91.652 Y99.973 E3.39413
G1 X91.834 Y98.237 E3.47930
G1 X92.373 Y96.577 E3.56448
G1 X93.246 Y95.066 E3.64965
G1 X94.348 Y93.842 E3.73001
G1 X93.972 Y93.278 F7800.000
G1 X95.496 Y92.171 F540.000 E3.82193
G1 X97.216 Y91.405 E3.91384
G1 X99.058 Y91.013 E4.00576
G1 X100.942 Y91.013 E4.09767
G1 X102.784 Y91.405 E4.18959
G1 X104.504 Y92.171 E4.28150
G1 X106.028 Y93.278 E4.37341
G1 X107.288 Y94.677 E4.46533
G1 X108.230 Y96.308 E4.55724
G1 X108.812 Y98.100 E4.64916
G1 X109.014 Y100.024 E4.74361
G1 X109.014 Y108.987 E5.18101
G1 X100.986 Y108.987 E5.57284
G1 X100.986 Y108.932 E5.57551
G1 X99.058 Y108.932 E5.66957
G1 X97.216 Y108.541 E5.76149
G1 X95.496 Y107.775 E5.85340
G1 X93.972 Y106.668 E5.94531
G1 X92.712 Y105.268 E6.03723
G1 X91.770 Y103.637 E6.12914
G1 X91.188 Y101.846 E6.22106
G1 X90.991 Y99.973 E6.31297
G1 X91.188 Y98.100 E6.40489
G1 X91.770 Y96.308 E6.49680
G1 X92.712 Y94.677 E6.58872
G1 X93.906 Y93.351 E6.67582
G1 X93.530 Y92.787 F7800.000
G1 X95.165 Y91.598 F378.000 E6.77448
G1 X97.012 Y90.776 E6.87313
G1 X98.989 Y90.356 E6.97179
G1 X101.011 Y90.356 E7.07044
G1 X102.988 Y90.776 E7.16910
G1 X104.835 Y91.598 E7.26775
G1 X106.470 Y92.787 E7.36641
G1 X107.823 Y94.289 E7.46506
G1 X108.834 Y96.040 E7.56372
G1 X109.458 Y97.962 E7.66237
G1 X109.671 Y99.990 E7.76187
G1 X109.671 Y109.644 E8.23303
G1 X100.329 Y109.644 E8.68899
G1 X100.329 Y109.589 E8.69166
G1 X98.989 Y109.589 E8.75702
G1 X97.012 Y109.169 E8.85568
G1 X95.165 Y108.347 E8.95433
G1 X93.530 Y107.159 E9.05299
G1 X92.177 Y105.656 E9.15164
G1 X91.166 Y103.906 E9.25030
G1 X90.542 Y101.983 E9.34895
G1 X90.330 Y99.973 E9.44761
G1 X90.542 Y97.962 E9.54626
G1 X91.166 Y96.040 E9.64492
G1 X92.177 Y94.289 E9.74358
G1 X93.464 Y92.860 E9.83742
G1 X94.147 Y93.011 F7800.000
G1 X103.197 Y92.829
G1 X107.213 Y96.845 F1080.000 E10.11821
G1 X107.666 Y98.239 E10.19072
G1 X101.775 Y92.349 E10.60262
G1 X100.631 Y92.146 E10.66008
G1 X107.800 Y99.315 E11.16139
G1 X107.881 Y100.338 E11.21209
G1 X99.690 Y92.146 E11.78489
G1 X98.824 Y92.222 E11.82789
G1 X107.881 Y101.279 E12.46127
G1 X107.881 Y102.221 E12.50782
G1 X98.047 Y92.387 E13.19550
G1 X97.319 Y92.600 E13.23303
G1 X107.881 Y103.162 E13.97165
G1 X107.881 Y104.104 E14.01821
G1 X96.667 Y92.890 E14.80239
G1 X96.024 Y93.188 E14.83745
G1 X107.881 Y105.045 E15.66662
G1 X107.881 Y105.987 E15.71317
G1 X95.478 Y93.584 E16.58048
G1 X94.933 Y93.980 E16.61381
G1 X107.881 Y106.928 E17.51924
G1 X107.865 Y107.854 E17.56501
G1 X94.451 Y94.439 E18.50305
G1 X94.005 Y94.935 E18.53602
G1 X106.924 Y107.854 E19.43941
G1 X105.982 Y107.854 E19.48597
G1 X93.576 Y95.447 E20.35352
G1 X93.231 Y96.044 E20.38761
G1 X105.040 Y107.854 E21.21342
G1 X104.099 Y107.854 E21.25998
G1 X92.886 Y96.641 E22.04406
G1 X92.631 Y97.327 E22.08024
G1 X103.157 Y107.854 E22.81637
G1 X102.216 Y107.854 E22.86293
G1 X92.400 Y98.037 E23.54936
G1 X92.251 Y98.830 E23.58923
G1 X101.220 Y107.799 E24.21642
G1 X100.278 Y107.799 E24.26297
G1 X92.161 Y99.682 E24.83058
G1 X92.203 Y100.666 E24.87927
G1 X99.337 Y107.799 E25.37808
G1 X98.184 Y107.588 E25.43602
G1 X92.350 Y101.753 E25.84401
G1 X92.803 Y103.148 E25.91652
G1 X96.745 Y107.090 E26.19219
M106 S255
M104 S169 ; set temperature
G1 F1800.000 E25.19219
G92 E0

G92 E0
M107
M104 S0 ; turn off temperature
G28 X0  ; home X axis
M84     ; disable motors

; filament used = 4717.2mm (33.3cm3)
